(File created: Wednesday November 19 2025 - 08:39 AM)
(for Carvera from Vectric)
(VECTRIC POST REVISION)
(AA6001CAC4E9696A3EC4F9B49CBCFB6D)
G90G54
G17
G21

T1M6
G0Z20.320
G0X0.000Y0.000
S10000M3
G0X60.743Y0.054
G0Z5.080
G1Z-1.000F300.0
G1X0.040F1000.0
X0.004Y0.057
X0.000Y0.111
Y2.277
X61.833
X61.985Y2.415
X62.169Y2.541
X62.472Y2.721
X62.651Y2.805
X62.841Y2.866
X63.037Y2.904
X63.234Y2.916
X63.500
Y4.499
X0.000
Y6.722
X63.500
Y8.944
X0.000
Y11.167
X63.500
Y13.389
X0.000
Y15.612
X63.500
Y17.834
X0.000
Y20.057
X63.500
Y22.279
X0.000
Y24.502
X63.500
Y26.724
X0.000
Y28.947
X63.500
Y31.169
X0.000
Y33.392
X63.500
Y35.614
X0.000
Y37.837
X63.500
Y40.059
X0.000
Y42.282
X63.500
Y44.504
X0.000
Y46.727
X63.500
Y48.949
X0.000
Y51.172
X63.500
Y53.394
X0.000
Y55.617
X63.500
Y57.839
X0.000
Y60.062
X63.500
Y62.284
X0.000
Y64.507
X63.500
Y66.729
X0.000
Y68.952
X63.500
Y71.174
X0.000
Y73.397
X63.500
Y75.619
X0.000
Y77.842
X63.500
Y80.064
X0.000
Y82.287
X63.500
Y84.509
X0.000
Y86.732
X63.500
Y88.842
X63.496Y88.896
X63.460Y88.899
X0.040
G0Z5.080
G0X0.000Y0.111
G1Z-1.000F300.0
G1X0.004Y0.057F1000.0
X0.058Y0.053
X60.743
Y0.159
G2X60.821Y0.650I1.587J0.000
G2X60.992Y1.135I1.563J-0.278
G1X61.045Y1.241
X61.098Y1.347
X61.151Y1.453
G2X61.501Y1.946I1.445J-0.656
G1X61.554Y1.999
X61.607Y2.052
X61.660Y2.105
X61.714Y2.158
X61.767Y2.212
X61.820Y2.265
X62.169Y2.541
X62.472Y2.721
G2X63.234Y2.916I0.763J-1.392
G1X63.500
Y88.842
X63.496Y88.896
X63.442Y88.900
X0.058
X0.004Y88.896
X0.000Y88.842
Y0.111
G0Z5.080
G0X60.425Y0.054
G1Z-2.000F300.0
G1X0.040F1000.0
X0.004Y0.057
X0.000Y0.111
Y2.277
X61.133
X61.156Y2.429
X61.226Y2.653
X61.291Y2.843
X61.380Y3.023
X61.491Y3.190
X61.616Y3.375
X61.767Y3.540
X61.820Y3.593
X61.873Y3.646
X62.038Y3.797
X62.222Y3.922
X62.525Y4.102
X62.704Y4.186
X62.894Y4.248
X63.090Y4.285
X63.287Y4.298
X63.500
Y4.499
X0.000
Y6.722
X63.500
Y8.944
X0.000
Y11.167
X63.500
Y13.389
X0.000
Y15.612
X63.500
Y17.834
X0.000
Y20.057
X63.500
Y22.279
X0.000
Y24.502
X63.500
Y26.724
X0.000
Y28.947
X63.500
Y31.169
X0.000
Y33.392
X63.500
Y35.614
X0.000
Y37.837
X63.500
Y40.059
X0.000
Y42.282
X63.500
Y44.504
X0.000
Y46.727
X63.500
Y48.949
X0.000
Y51.172
X63.500
Y53.394
X0.000
Y55.617
X63.500
Y57.839
X0.000
Y60.062
X63.500
Y62.284
X0.000
Y64.507
X63.500
Y66.729
X0.000
Y68.952
X63.500
Y71.174
X0.000
Y73.397
X63.500
Y75.619
X0.000
Y77.842
X63.500
Y80.064
X0.000
Y82.287
X63.500
Y84.509
X0.000
Y86.732
X63.500
Y88.842
X63.496Y88.896
X63.460Y88.899
X0.040
G0Z5.080
G0X60.425Y0.053
G1Z-2.000F300.0
G1Y0.319F1000.0
G2X60.535Y0.900I1.587J0.000
G1X60.588Y1.059
X60.609Y1.128
G2X60.779Y1.613I1.563J-0.278
G1X60.832Y1.719
X60.885Y1.825
X61.120Y2.196
G2X61.226Y2.653I1.583J-0.123
G2X61.491Y3.190I1.530J-0.422
G1X61.767Y3.540
X61.820Y3.593
X61.873Y3.646
X62.222Y3.922
X62.525Y4.102
G2X63.287Y4.298I0.763J-1.392
G1X63.500
Y88.842
X63.496Y88.896
X63.442Y88.900
X0.058
X0.004Y88.896
X0.000Y88.842
Y0.111
X0.004Y0.057
X0.058Y0.053
X60.425
G0Z5.080
G0X60.106Y0.054
G1Z-3.000F300.0
G1X0.040F1000.0
X0.004Y0.057
X0.000Y0.111
Y2.277
X60.708
X60.729Y2.421
X60.800Y2.653
X60.860Y2.828
X60.939Y2.994
X60.992Y3.101
X61.045Y3.207
X61.225Y3.509
X61.351Y3.694
X61.501Y3.859
X61.554Y3.912
X61.607Y3.965
X61.756Y4.102
X61.921Y4.220
X62.100Y4.315
X62.266Y4.394
X62.441Y4.453
X62.580Y4.499
X0.000
Y6.722
X63.500
Y8.944
X0.000
Y11.167
X63.500
Y13.389
X0.000
Y15.612
X63.500
Y17.834
X0.000
Y20.057
X63.500
Y22.279
X0.000
Y24.502
X63.500
Y26.724
X0.000
Y28.947
X63.500
Y31.169
X0.000
Y33.392
X63.500
Y35.614
X0.000
Y37.837
X63.500
Y40.059
X0.000
Y42.282
X63.500
Y44.504
X0.000
Y46.727
X63.500
Y48.949
X0.000
Y51.172
X63.500
Y53.394
X0.000
Y55.617
X63.500
Y57.839
X0.000
Y60.062
X63.500
Y62.284
X0.000
Y64.507
X63.500
Y66.729
X0.000
Y68.952
X63.500
Y71.174
X0.000
Y73.397
X63.500
Y75.619
X0.000
Y77.842
X63.500
Y80.064
X0.000
Y82.287
X63.500
Y84.509
X0.000
Y86.732
X63.500
Y88.842
X63.496Y88.896
X63.460Y88.899
X0.040
G0Z5.080
G0X60.106Y0.053
G1Z-3.000F300.0
G1Y0.319F1000.0
G2X60.183Y0.809I1.587J0.000
G1X60.237Y1.022
X60.290Y1.234
X60.375Y1.538
X60.514Y1.878
X60.694Y2.181
G2X60.800Y2.653I1.584J-0.109
G1X60.939Y2.994
X60.992Y3.101
X61.045Y3.207
X61.225Y3.509
X61.501Y3.859
X61.554Y3.912
X61.607Y3.965
G2X62.100Y4.315I1.149J-1.096
G1X62.441Y4.453
X62.600Y4.506
G2X63.181Y4.616I0.581J-1.477
G1X63.500
Y88.842
X63.496Y88.896
X63.442Y88.900
X0.058
X0.004Y88.896
X0.000Y88.842
Y0.111
X0.004Y0.057
X0.058Y0.053
X60.106
G0Z5.080
G0X59.734Y0.054
G1Z-4.000F300.0
G1X0.040F1000.0
X0.004Y0.057
X0.000Y0.111
Y2.277
X60.361
X60.381Y2.356
X60.414Y2.543
X60.468Y2.725
X60.544Y2.899
X60.673Y3.207
X60.726Y3.313
X60.896Y3.603
X60.990Y3.772
X61.104Y3.930
X61.235Y4.071
X61.269Y4.106
X61.332Y4.301
X61.391Y4.475
X61.403Y4.499
X0.000
Y6.722
X63.500
Y7.499
X63.341
X63.130Y7.513
X62.920Y7.556
X62.716Y7.627
X62.523Y7.726
X62.347Y7.849
X62.192Y7.991
X62.139Y8.044
X62.086Y8.097
X61.943Y8.252
X61.820Y8.428
X61.722Y8.621
X61.650Y8.826
X61.626Y8.944
X0.000
Y11.167
X63.005
X63.143Y11.193
X63.341Y11.205
X63.500
Y13.389
X0.000
Y15.612
X63.500
Y17.834
X0.000
Y20.057
X63.500
Y22.279
X0.000
Y24.502
X63.500
Y26.724
X0.000
Y28.947
X63.500
Y31.169
X0.000
Y33.392
X63.500
Y35.614
X0.000
Y37.837
X63.500
Y40.059
X0.000
Y42.282
X63.500
Y44.504
X0.000
Y46.727
X63.500
Y48.949
X0.000
Y51.172
X63.500
Y53.394
X0.000
Y55.617
X63.500
Y57.839
X0.000
Y60.062
X63.500
Y62.284
X0.000
Y64.507
X63.500
Y66.729
X0.000
Y68.952
X63.500
Y71.174
X0.000
Y73.397
X63.500
Y75.619
X0.000
Y77.842
X63.500
Y80.064
X0.000
Y82.287
X63.500
Y84.509
X0.000
Y86.732
X63.500
Y88.842
X63.496Y88.896
X63.460Y88.899
X0.040
G0Z5.080
G0X59.734Y0.053
G1Z-4.000F300.0
G1Y0.266F1000.0
G2X59.811Y0.756I1.587J0.000
G1X59.843Y0.897
G2X59.950Y1.378I1.584J-0.100
G1X60.003Y1.538
X60.142Y1.878
X60.195Y1.985
X60.358Y2.264
X60.381Y2.356
G2X60.544Y2.899I1.578J-0.177
G1X60.673Y3.207
X60.726Y3.313
X60.896Y3.603
G2X61.235Y4.071I1.434J-0.680
G1X61.269Y4.106
X61.332Y4.301
X61.470Y4.642
G2X61.820Y5.134I1.445J-0.656
G1X61.873Y5.187
X61.926Y5.240
X61.979Y5.294
G2X62.472Y5.643I1.149J-1.096
G2X63.234Y5.839I0.763J-1.392
G1X63.500
Y7.499
X63.341
G2X62.192Y7.991I0.000J1.588
G1X62.139Y8.044
X62.086Y8.097
G2X61.594Y9.246I1.096J1.149
G1Y9.512
G2X62.086Y10.661I1.588J0.000
G2X62.578Y11.010I1.149J-1.096
G2X63.341Y11.205I0.763J-1.392
G1X63.500
Y88.842
X63.496Y88.896
X63.442Y88.900
X0.058
X0.004Y88.896
X0.000Y88.842
Y0.111
X0.004Y0.057
X0.058Y0.053
X59.734
G0Z5.080
G0X59.096Y0.054
G1Z-5.000F300.0
G1X0.040F1000.0
X0.004Y0.057
X0.000Y0.111
Y2.277
X59.801
X59.923Y2.437
X60.034Y2.593
X60.057Y2.653
X60.110Y2.813
X60.169Y2.987
X60.248Y3.154
X60.418Y3.443
X60.587Y3.722
X60.712Y3.905
X60.861Y4.069
X60.898Y4.267
X60.960Y4.459
X60.978Y4.499
X0.000
Y6.722
X60.231
X60.177Y6.862
X60.130Y7.055
X60.072Y7.297
X60.053Y7.546
Y7.758
X60.065Y7.956
X60.102Y8.151
X60.163Y8.339
X60.222Y8.514
X60.301Y8.680
X60.354Y8.786
X60.440Y8.944
X0.000
Y11.167
X61.229
X61.375Y11.414
X61.468Y11.583
X61.582Y11.741
X61.714Y11.883
X61.767Y11.936
X61.820Y11.989
X61.823Y11.992
X61.842Y12.028
X61.937Y12.206
X62.055Y12.372
X62.192Y12.520
X62.340Y12.657
X62.506Y12.775
X62.684Y12.870
X62.863Y12.954
X63.053Y13.016
X63.249Y13.053
X63.447Y13.065
X63.500
Y13.389
X0.000
Y15.612
X63.500
Y17.834
X0.000
Y20.057
X63.500
Y22.279
X0.000
Y24.502
X63.500
Y26.724
X0.000
Y28.947
X63.500
Y31.169
X0.000
Y33.392
X63.500
Y35.614
X0.000
Y37.837
X63.500
Y40.059
X0.000
Y42.282
X63.500
Y44.504
X0.000
Y46.727
X63.500
Y48.949
X0.000
Y51.172
X63.500
Y53.394
X0.000
Y55.617
X63.500
Y57.839
X0.000
Y60.062
X63.500
Y62.284
X0.000
Y64.507
X63.500
Y66.729
X0.000
Y68.952
X63.500
Y71.174
X0.000
Y73.397
X63.500
Y75.619
X0.000
Y77.842
X63.500
Y80.064
X0.000
Y82.287
X63.500
Y84.509
X0.000
Y86.732
X63.500
Y88.842
X63.496Y88.896
X63.460Y88.899
X0.040
G0Z5.080
G0X59.096Y0.053
G1Z-5.000F300.0
G1Y0.159F1000.0
G2X59.174Y0.650I1.587J0.000
G1X59.259Y0.953
X59.313Y1.112
X59.333Y1.181
X59.419Y1.484
X59.557Y1.825
X59.610Y1.932
X59.663Y2.038
G2X59.923Y2.437I1.445J-0.656
G1X60.034Y2.593
X60.057Y2.653
X60.110Y2.813
X60.248Y3.154
X60.418Y3.443
X60.587Y3.722
X60.861Y4.069
G2X61.045Y4.642I1.576J-0.190
G1X61.085Y4.723
G2X61.009Y5.208I1.512J0.484
G1Y5.367
X61.068Y5.794
G2X60.704Y6.078I0.785J1.380
G1X60.651Y6.131
X60.598Y6.184
G2X60.130Y7.055I1.096J1.149
G2X60.053Y7.546I1.510J0.490
G1Y7.758
G2X60.163Y8.339I1.587J0.000
G1X60.301Y8.680
X60.354Y8.786
G2X60.596Y9.166I1.445J-0.656
G1X60.609Y9.205
X60.727Y9.586
X60.768Y9.736
X60.854Y10.040
X60.906Y10.197
G2X61.013Y10.677I1.584J-0.101
G1X61.151Y11.018
X61.204Y11.125
X61.375Y11.414
G2X61.714Y11.883I1.434J-0.680
G1X61.767Y11.936
X61.820Y11.989
X61.823Y11.992
X61.842Y12.028
G2X62.192Y12.520I1.445J-0.656
G2X62.684Y12.870I1.149J-1.096
G2X63.447Y13.065I0.763J-1.392
G1X63.500
Y88.842
X63.496Y88.896
X63.442Y88.900
X0.058
X0.004Y88.896
X0.000Y88.842
Y0.111
X0.004Y0.057
X0.058Y0.053
X59.096
G0Z5.080
G0X57.534Y0.054
G1Z-6.000F300.0
G1X0.040F1000.0
X0.004Y0.057
X0.000Y0.111
Y2.277
X56.120
Y2.551
X56.133Y2.748
X56.170Y2.943
X56.231Y3.132
X56.290Y3.306
X56.369Y3.473
X56.484Y3.682
X56.628Y3.872
X56.788Y4.084
X56.903Y4.245
X57.037Y4.390
X57.091Y4.443
X57.152Y4.499
X0.000
Y6.722
X58.743
X58.744Y6.731
X58.802Y6.973
X58.841Y7.141
X58.898Y7.303
X58.973Y7.458
X59.026Y7.564
X59.054Y7.623
X59.091Y7.825
X59.153Y8.020
X59.212Y8.195
X59.291Y8.361
X59.319Y8.420
X59.356Y8.620
X59.418Y8.815
X59.478Y8.944
X0.000
Y11.167
X60.590
X60.693Y11.351
X60.711Y11.519
X60.747Y11.685
X60.800Y11.846
X60.860Y12.021
X60.939Y12.187
X60.992Y12.294
X61.107Y12.503
X61.251Y12.693
X61.367Y12.853
X61.501Y12.999
X61.554Y13.052
X61.607Y13.105
X61.772Y13.255
X61.957Y13.381
X61.971Y13.389
X0.000
Y15.612
X63.500
Y17.834
X0.000
Y20.057
X63.500
Y22.279
X0.000
Y24.502
X63.500
Y26.724
X0.000
Y28.947
X63.500
Y31.169
X0.000
Y33.392
X63.500
Y35.614
X0.000
Y37.837
X63.500
Y40.059
X0.000
Y42.282
X63.500
Y43.667
X63.308Y43.563
X63.104Y43.487
X63.040Y43.456
X62.958Y43.414
X62.668Y43.244
X62.562Y43.191
X62.456Y43.137
X62.350Y43.084
X62.183Y43.005
X62.009Y42.946
X61.849Y42.893
X61.690Y42.840
X61.501Y42.779
X61.306Y42.742
X61.109Y42.730
X60.737
X60.489Y42.749
X60.246Y42.807
X59.943Y42.893
X59.784Y42.946
X59.609Y43.005
X59.443Y43.084
X59.337Y43.137
X59.047Y43.308
X58.965Y43.350
X58.662Y43.530
X58.478Y43.656
X58.313Y43.806
X58.260Y43.859
X58.206Y43.912
X58.069Y44.061
X57.952Y44.226
X57.857Y44.405
X57.807Y44.504
X0.000
Y46.727
X57.995
X58.109Y46.895
X58.260Y47.060
X58.313Y47.113
X58.461Y47.250
X58.627Y47.368
X58.805Y47.463
X58.888Y47.505
X58.937Y47.540
X58.994Y47.714
X59.059Y47.904
X59.148Y48.084
X59.259Y48.252
X59.385Y48.436
X59.535Y48.601
X59.588Y48.654
X59.737Y48.791
X59.902Y48.909
X59.978Y48.949
X0.000
Y51.172
X63.500
Y53.394
X0.000
Y55.617
X63.500
Y57.839
X0.000
Y60.062
X63.500
Y62.284
X0.000
Y64.507
X63.500
Y66.729
X0.000
Y68.952
X63.500
Y71.174
X0.000
Y73.397
X63.500
Y75.619
X0.000
Y77.842
X63.500
Y80.064
X0.000
Y82.287
X63.500
Y84.509
X0.000
Y86.732
X63.500
Y88.842
X63.496Y88.896
X63.460Y88.899
X0.040
G0Z5.080
G0X57.535Y0.053
G1Z-6.000F300.0
G1X57.313Y0.335F1000.0
X57.264Y0.361
G2X56.772Y0.711I0.656J1.445
G1X56.719Y0.764
G2X56.369Y1.257I1.096J1.149
G1X56.316Y1.363
G2X56.120Y2.126I1.392J0.763
G1Y2.551
G2X56.231Y3.132I1.587J0.000
G1X56.369Y3.473
G2X56.628Y3.872I1.445J-0.656
G1X56.788Y4.084
X57.037Y4.390
X57.091Y4.443
X57.440Y4.719
X57.742Y4.899
X57.849Y4.953
G2X58.405Y5.134I0.763J-1.392
G1Y5.367
G2X58.516Y5.948I1.588J0.000
G1X58.654Y6.289
X58.707Y6.395
X58.724Y6.432
Y6.483
G2X58.802Y6.973I1.587J0.000
G2X58.973Y7.458I1.563J-0.278
G1X59.026Y7.564
X59.054Y7.623
X59.153Y8.020
X59.291Y8.361
X59.319Y8.420
G2X59.504Y8.999I1.577J-0.183
G1X59.557Y9.105
X59.737Y9.408
X60.013Y9.757
X60.169Y9.900
X60.269Y10.305
X60.322Y10.465
X60.375Y10.624
X60.429Y10.784
X60.567Y11.125
X60.693Y11.351
G2X60.800Y11.846I1.585J-0.086
G1X60.939Y12.187
X60.992Y12.294
G2X61.251Y12.693I1.445J-0.656
G1X61.501Y12.999
X61.554Y13.052
X61.607Y13.105
X61.957Y13.381
X62.259Y13.561
X62.365Y13.614
G2X62.951Y13.799I0.763J-1.392
G1X63.394Y13.862
X63.500
Y43.667
X63.104Y43.487
X63.040Y43.456
X62.958Y43.414
X62.668Y43.244
X62.562Y43.191
X62.456Y43.137
X62.350Y43.084
X62.009Y42.946
X61.849Y42.893
X61.690Y42.840
G2X61.109Y42.730I-0.581J1.477
G1X60.737
G2X60.246Y42.807I0.000J1.588
G1X59.943Y42.893
X59.784Y42.946
X59.443Y43.084
X59.337Y43.137
X59.047Y43.308
X58.965Y43.350
X58.662Y43.530
X58.313Y43.806
X58.260Y43.859
X58.206Y43.912
G2X57.857Y44.405I1.096J1.149
G1X57.803Y44.511
G2X57.608Y45.274I1.392J0.763
G1Y45.646
G2X57.803Y46.408I1.587J0.000
G1X57.984Y46.711
X58.260Y47.060
X58.313Y47.113
G2X58.805Y47.463I1.149J-1.096
G1X58.888Y47.505
X58.937Y47.540
X58.994Y47.714
G2X59.259Y48.252I1.530J-0.422
G1X59.535Y48.601
X59.588Y48.654
G2X60.081Y49.004I1.149J-1.096
G1X60.187Y49.057
X60.293Y49.110
G2X60.778Y49.281I0.763J-1.392
G2X61.268Y49.359I0.490J-1.510
G1X61.481
X61.739Y49.337
G2X62.032Y49.717I1.389J-0.769
G1X62.086Y49.770
G2X62.578Y50.120I1.149J-1.096
G2X63.341Y50.315I0.763J-1.392
G1X63.500
Y88.842
X63.496Y88.896
X63.442Y88.900
X0.058
X0.004Y88.896
X0.000Y88.842
Y0.111
X0.004Y0.057
X0.058Y0.053
X57.535
G0Z5.080
G0X56.123Y0.054
G1Z-7.000F300.0
G1X0.040F1000.0
X0.004Y0.057
X0.000Y0.111
Y2.277
X54.739
Y2.551
X54.751Y2.748
X54.788Y2.943
X54.849Y3.132
X54.908Y3.306
X54.987Y3.473
X55.082Y3.651
X55.200Y3.817
X55.337Y3.965
X55.390Y4.018
X55.443Y4.071
X55.496Y4.125
X55.550Y4.178
X55.603Y4.231
X55.656Y4.284
X55.804Y4.421
X55.915Y4.499
X0.000
Y6.722
X57.307
X57.412Y6.873
X57.535Y7.013
X57.502Y7.333
Y7.546
X57.519Y7.777
X57.570Y8.006
X57.655Y8.225
X57.769Y8.427
X57.768Y8.502
Y8.555
X57.780Y8.753
X57.816Y8.944
X0.000
Y11.167
X59.336
X59.363Y11.211
X59.389Y11.453
X59.454Y11.692
X59.556Y11.919
X59.691Y12.127
X59.854Y12.308
X59.907Y12.361
X59.960Y12.414
X60.129Y12.567
X59.987Y12.693
X59.860Y12.835
X59.752Y12.992
X59.663Y13.160
X59.579Y13.339
X59.563Y13.389
X0.000
Y15.612
X60.051
X60.103Y15.684
X60.252Y15.839
X60.354Y16.066
X60.407Y16.173
X60.502Y16.351
X60.620Y16.517
X60.757Y16.665
X60.810Y16.718
X60.863Y16.771
X60.927Y16.834
X60.903Y17.110
Y17.589
X60.915Y17.786
X60.924Y17.834
X0.000
Y20.057
X63.500
Y22.279
X62.909
G0Z5.080
G0X54.581
G1Z-7.000F300.0
G1X0.000F1000.0
Y24.502
X55.365
X55.486Y24.614
X55.651Y24.731
X55.829Y24.826
X55.936Y24.879
X56.106Y24.960
X56.287Y25.020
X56.473Y25.058
X56.661Y25.074
X56.864Y25.114
X57.070Y25.128
X57.123
X57.372Y25.108
X57.614Y25.050
X57.781Y25.011
X57.944Y24.954
X58.099Y24.879
X58.205Y24.826
X58.370Y24.739
X58.523Y24.634
X58.525Y24.636
X58.578Y24.689
X58.743Y24.839
X58.928Y24.965
X59.230Y25.145
X59.418Y25.232
X59.448Y25.457
X59.511Y25.677
X59.605Y25.888
X59.729Y26.082
X59.876Y26.253
X59.950Y26.359
X60.088Y26.559
X60.245Y26.724
X0.000
Y28.947
X63.500
Y31.169
X0.000
Y33.392
X60.956
Y33.636
X60.968Y33.834
X61.006Y34.030
X61.067Y34.220
X61.151Y34.399
X61.204Y34.505
X61.257Y34.612
X61.353Y34.790
X61.470Y34.955
X61.607Y35.104
X61.660Y35.157
X61.714Y35.210
X61.767Y35.263
X61.820Y35.317
X61.968Y35.454
X62.134Y35.571
X62.215Y35.614
X0.000
Y37.837
X63.500
Y40.059
X60.573
X60.588Y40.076
X60.706Y40.241
X60.801Y40.419
X60.885Y40.599
X60.946Y40.788
X60.984Y40.984
X60.996Y41.182
Y41.660
X60.977Y41.907
X60.919Y42.147
X61.250Y42.198
X61.481
X61.729Y42.218
X61.971Y42.276
X61.992Y42.282
X63.500
G0Z5.080
G0X54.522Y40.059
G1Z-7.000F300.0
G1X0.000F1000.0
Y42.282
X52.879
Y42.298
X52.890Y42.485
X52.838Y42.600
X52.701Y42.893
X52.564Y43.093
X52.451Y43.263
X52.360Y43.449
X52.294Y43.645
X52.254Y43.848
X52.241Y44.051
Y44.477
X52.243Y44.504
X0.000
Y46.727
X54.602
X54.614Y46.730
X54.856Y46.788
X55.104Y46.808
X55.370
X55.551Y46.798
X55.731Y46.766
X55.936Y46.879
X55.976Y46.900
X56.079Y47.073
X56.203Y47.232
X56.319Y47.393
X56.453Y47.538
X56.598Y47.673
X56.759Y47.788
X57.015Y47.974
X57.174Y48.080
X57.290Y48.160
X57.480Y48.305
X57.689Y48.420
X57.844Y48.494
X58.007Y48.551
X58.174Y48.590
X58.347Y48.636
X58.366Y48.654
X58.419Y48.707
X58.472Y48.761
X58.525Y48.814
X58.578Y48.867
X58.667Y48.949
X0.000
Y51.172
X61.436
X61.438Y51.174
X61.563Y51.359
X61.714Y51.524
X61.767Y51.577
X61.902Y51.703
X61.660Y51.954
X61.484Y52.026
X61.317Y52.119
X61.162Y52.232
X61.023Y52.361
X60.970Y52.414
X60.827Y52.570
X60.704Y52.746
X60.606Y52.938
X60.534Y53.143
X60.492Y53.353
X60.489Y53.394
X0.000
Y55.617
X63.500
Y57.839
X0.000
Y60.062
X63.500
Y62.284
X0.000
Y64.507
X63.500
Y66.729
X0.000
Y68.952
X63.500
Y71.174
X0.000
Y73.397
X63.500
Y75.619
X0.000
Y77.842
X63.500
Y80.064
X0.000
Y82.287
X63.500
Y84.509
X0.000
Y86.732
X63.500
Y88.842
X63.496Y88.896
X63.460Y88.899
X0.040
G0Z5.080
G0X56.125Y0.053
G1Z-7.000F300.0
G2X55.656Y0.392I0.680J1.435F1000.0
G1X55.603Y0.445
X55.550Y0.498
X55.496Y0.552
X55.443Y0.605
X55.390Y0.658
X55.114Y1.007
G2X54.849Y1.545I1.265J0.959
G2X54.739Y2.126I1.477J0.581
G1Y2.551
G2X54.849Y3.132I1.587J0.000
G1X54.987Y3.473
G2X55.337Y3.965I1.445J-0.656
G1X55.390Y4.018
X55.443Y4.071
X55.496Y4.125
X55.550Y4.178
X55.603Y4.231
X55.656Y4.284
G2X56.148Y4.634I1.149J-1.096
G1X56.255Y4.687
X56.333Y4.727
X56.336Y4.731
X56.612Y5.081
X56.665Y5.134
X56.719Y5.187
X57.050Y5.452
X57.024Y5.739
Y5.792
G2X57.219Y6.555I1.588J0.000
G2X57.535Y7.013I1.445J-0.656
G1X57.502Y7.333
Y7.546
G2X57.769Y8.427I1.587J0.000
G1X57.768Y8.502
Y8.555
G2X57.878Y9.136I1.588J0.000
G1X58.016Y9.477
X58.069Y9.584
G2X58.419Y10.076I1.445J-0.656
G1X58.472Y10.129
X58.525Y10.182
X58.578Y10.235
X58.632Y10.289
G2X59.023Y10.588I1.149J-1.096
G1X59.079Y10.699
X59.132Y10.806
X59.185Y10.912
X59.363Y11.211
G2X59.854Y12.308I1.587J-0.052
G1X59.907Y12.361
X59.960Y12.414
X60.129Y12.567
G2X59.663Y13.160I0.980J1.249
G2X59.468Y13.922I1.392J0.763
G1Y14.188
G2X59.641Y14.908I1.588J0.000
G2X59.976Y15.509I1.521J-0.454
G1X60.252Y15.839
X60.354Y16.066
X60.407Y16.173
G2X60.757Y16.665I1.445J-0.656
G1X60.810Y16.718
X60.863Y16.771
X60.927Y16.834
X60.903Y17.110
Y17.589
G2X61.013Y18.170I1.588J0.000
G2X61.448Y18.897I1.530J-0.422
G1X61.501Y18.950
X61.554Y19.003
G2X62.594Y19.491I1.149J-1.096
G2X63.394Y19.708I0.800J-1.371
G1X63.500
Y22.856
X63.394
G2X62.789Y22.976I0.000J1.588
G2X62.909Y22.371I-1.468J-0.604
G1Y22.159
G2X62.714Y21.396I-1.588J0.000
G2X62.364Y20.904I-1.445J0.656
G2X61.637Y20.469I-1.149J1.096
G2X61.056Y20.359I-0.581J1.477
G1X60.896
G2X60.134Y20.554I0.000J1.588
G1X60.088Y20.575
G2X59.443Y20.766I0.118J1.583
G2X58.950Y21.116I0.656J1.445
G2X58.637Y21.534I1.096J1.149
G1X58.295Y21.265
X57.992Y21.085
X57.886Y21.032
G2X57.123Y20.837I-0.763J1.392
G1X56.645
G2X56.155Y20.914I0.000J1.588
G1X55.852Y21.000
X55.511Y21.138
G2X54.721Y21.927I0.656J1.445
G2X54.526Y22.690I1.392J0.763
G1Y22.743
X54.583Y23.162
G2X55.071Y24.211I1.584J-0.100
G1X55.124Y24.264
X55.178Y24.317
X55.231Y24.370
X55.284Y24.423
X55.337Y24.476
G2X55.829Y24.826I1.149J-1.096
G1X55.936Y24.879
G2X56.661Y25.074I0.763J-1.392
G1X57.070Y25.128
X57.123
G2X57.614Y25.050I0.000J-1.588
G2X58.099Y24.879I-0.278J-1.563
G1X58.205Y24.826
X58.523Y24.634
X58.525Y24.636
X58.578Y24.689
X58.928Y24.965
X59.230Y25.145
X59.418Y25.232
G2X59.876Y26.253I1.584J-0.098
G1X59.950Y26.359
G2X60.665Y27.005I1.372J-0.799
G1X60.700Y27.024
X60.704Y27.027
X61.053Y27.303
X61.356Y27.483
X61.462Y27.536
X61.803Y27.674
G2X62.284Y27.781I0.581J-1.477
G1X62.703Y27.838
X62.716
G2X63.287Y27.944I0.571J-1.481
G1X63.500
Y31.411
X63.341
X62.922Y31.468
G2X62.441Y31.575I0.100J1.584
G1X62.100Y31.713
X61.993Y31.766
G2X61.501Y32.116I0.656J1.445
G2X61.151Y32.608I1.096J1.149
G2X60.956Y33.371I1.392J0.763
G1Y33.636
G2X61.151Y34.399I1.587J0.000
G1X61.204Y34.505
X61.257Y34.612
G2X61.607Y35.104I1.445J-0.656
G1X61.660Y35.157
X61.714Y35.210
X61.767Y35.263
X61.820Y35.317
G2X62.312Y35.666I1.149J-1.096
G1X62.419Y35.720
X62.525Y35.773
G2X63.287Y35.968I0.763J-1.392
G1X63.500
Y42.891
X63.359Y42.819
X63.253Y42.765
X63.147Y42.712
X63.040Y42.659
X62.934Y42.606
G2X62.511Y42.448I-0.763J1.392
G1X62.274Y42.362
X61.971Y42.276
G2X61.481Y42.198I-0.490J1.510
G1X61.250
X60.919Y42.147
G2X60.996Y41.660I-1.511J-0.487
G1Y41.182
G2X60.801Y40.419I-1.588J0.000
G2X60.451Y39.927I-1.445J0.656
G1X60.398Y39.874
X60.345Y39.821
X60.291Y39.768
G2X59.799Y39.418I-1.149J1.096
G2X59.314Y39.247I-0.763J1.392
G2X58.824Y39.169I-0.490J1.510
G1X57.549
X57.442Y39.173
X57.336Y39.169
X57.017
X56.610Y39.223
X56.539
G2X55.776Y39.418I0.000J1.587
G1X55.670Y39.471
G2X55.178Y39.821I0.656J1.445
G1X55.124Y39.874
X55.105Y39.892
X54.933Y39.938
X54.629Y40.023
X54.470Y40.077
X54.311Y40.130
X53.970Y40.268
G2X53.477Y40.618I0.656J1.445
G1X53.424Y40.671
G2X52.989Y41.398I1.096J1.149
G2X52.879Y41.979I1.477J0.581
G1Y42.298
X52.890Y42.485
X52.838Y42.600
X52.701Y42.893
X52.564Y43.093
G2X52.241Y44.051I1.265J0.959
G1Y44.477
G2X52.733Y45.625I1.587J0.000
G1X52.786Y45.678
X52.839Y45.732
X52.893Y45.785
X53.242Y46.061
X53.358Y46.141
G2X53.757Y46.400I1.055J-1.186
G1X53.863Y46.453
X53.970Y46.507
X54.311Y46.645
X54.614Y46.730
G2X55.104Y46.808I0.490J-1.510
G1X55.370
X55.731Y46.766
X55.936Y46.879
X55.976Y46.900
X56.203Y47.232
X56.453Y47.538
X56.759Y47.788
X57.015Y47.974
X57.174Y48.080
X57.290Y48.160
G2X57.689Y48.420I1.055J-1.186
G2X58.174Y48.590I0.763J-1.392
G1X58.347Y48.636
X58.366Y48.654
X58.419Y48.707
X58.472Y48.761
X58.525Y48.814
X58.578Y48.867
X58.874Y49.110
G2X59.337Y49.429I1.119J-1.126
G1X59.645Y49.558
X59.709Y49.589
X60.050Y49.727
X60.209Y49.780
X60.512Y49.866
X60.904Y49.940
X60.907Y49.946
X60.960Y50.106
X61.013Y50.265
X61.129Y50.564
X61.257Y50.872
X61.438Y51.174
X61.714Y51.524
X61.767Y51.577
X61.902Y51.703
X61.660Y51.954
G2X61.023Y52.361I0.512J1.503
G1X60.970Y52.414
G2X60.478Y53.563I1.096J1.149
G1Y53.616
G2X60.970Y54.765I1.587J0.000
G1X61.023Y54.818
G2X62.172Y55.310I1.149J-1.096
G1X62.331
X62.703Y55.266
X63.075Y55.310
X63.447
X63.500Y55.309
Y88.842
X63.496Y88.896
X63.442Y88.900
X0.058
X0.004Y88.896
X0.000Y88.842
Y0.111
X0.004Y0.057
X0.058Y0.053
X56.125
G0Z5.080
G0X54.420Y0.054
G1Z-8.000F300.0
G1X0.040F1000.0
X0.004Y0.057
X0.000Y0.111
Y2.277
X53.384
X53.371Y2.340
X53.357Y2.551
Y2.710
X53.371Y2.920
X53.414Y3.130
X53.485Y3.335
X53.584Y3.528
X53.707Y3.704
X53.849Y3.859
X53.954Y3.959
X53.924Y4.020
X53.884Y4.098
X53.690Y4.271
X53.637Y4.324
X53.583Y4.378
X53.530Y4.431
X53.467Y4.499
X0.000
Y6.722
X51.913
X51.852Y6.836
X51.773Y7.003
X51.714Y7.177
X51.653Y7.365
X51.616Y7.561
X51.604Y7.758
Y8.236
X51.616Y8.434
X51.653Y8.629
X51.714Y8.817
X51.734Y8.886
X51.751Y8.944
X48.411
X48.420Y8.962
X48.473Y9.068
X48.526Y9.174
X48.579Y9.281
X48.653Y9.435
X48.710Y9.598
X48.750Y9.765
X48.808Y10.007
X48.827Y10.256
Y10.734
X48.815Y10.931
X48.778Y11.127
X48.765Y11.167
X51.865
X51.880Y11.232
X51.937Y11.395
X52.011Y11.550
X52.065Y11.656
X52.160Y11.834
X52.277Y12.000
X52.414Y12.148
X52.486Y12.218
X52.564Y12.484
X52.634Y12.685
X52.732Y12.877
X52.855Y13.054
X52.999Y13.211
X53.052Y13.264
X53.188Y13.389
X48.541
X48.585Y13.451
X48.730Y13.641
X48.845Y13.850
X48.898Y13.957
X48.982Y14.136
X49.043Y14.326
X49.081Y14.522
X49.093Y14.719
Y15.089
X49.181Y15.310
X49.234Y15.544
X49.240Y15.612
X55.612
X55.710Y15.803
X55.832Y15.979
X55.975Y16.134
X56.028Y16.187
X56.081Y16.240
X56.229Y16.377
X56.395Y16.495
X56.573Y16.590
X56.710Y16.657
X56.772Y16.718
X56.825Y16.771
X56.878Y16.825
X56.931Y16.878
X56.984Y16.931
X57.126Y17.062
X57.284Y17.176
X57.453Y17.270
X57.719Y17.429
X57.984Y17.588
X58.274Y17.759
X58.455Y17.834
X57.527
G0Z5.080
G0X42.637Y8.944
G1Z-8.000F300.0
G1X0.000F1000.0
Y11.167
X42.365
X42.421Y11.330
X42.500Y11.496
X42.595Y11.675
X42.712Y11.840
X42.850Y11.989
X42.903Y12.042
X42.956Y12.095
X43.009Y12.148
X43.174Y12.299
X43.358Y12.424
X43.661Y12.604
X43.969Y12.733
X44.009Y12.753
X44.156Y12.849
X44.458Y13.030
X44.564Y13.083
X44.749Y13.169
X44.942Y13.231
X44.922Y13.252
X44.869Y13.305
X44.816Y13.358
X44.784Y13.389
X0.000
Y15.612
X44.374
X44.403Y15.676
X44.360Y15.763
X44.306Y15.870
X44.222Y16.049
X44.161Y16.239
X44.124Y16.435
X44.111Y16.632
Y16.898
X44.125Y17.108
X44.168Y17.318
X44.239Y17.523
X44.338Y17.716
X44.421Y17.834
X0.000
Y20.057
G0Z5.080
G0X53.092Y17.834
G1Z-8.000F300.0
G1X48.158F1000.0
G0Z5.080
G0X0.000Y20.057
G1Z-8.000F300.0
G1X49.771F1000.0
X49.763Y20.062
X49.598Y20.213
X49.448Y20.378
X49.322Y20.562
X49.142Y20.865
X49.063Y21.031
X49.004Y21.206
X48.957Y21.344
X48.720Y21.409
X48.496Y21.510
X48.318Y21.605
X48.153Y21.723
X48.004Y21.860
X47.951Y21.913
X47.898Y21.966
X47.747Y22.131
X47.646Y22.279
X0.000
Y24.502
X47.254
X47.335Y24.675
X47.515Y24.977
X47.641Y25.162
X47.791Y25.327
X47.845Y25.380
X47.993Y25.517
X48.159Y25.634
X48.337Y25.730
X48.443Y25.783
X48.550Y25.836
X48.729Y25.920
X48.919Y25.981
X49.115Y26.019
X49.312Y26.031
X49.326
X49.475Y26.080
X49.778Y26.166
X50.020Y26.224
X50.269Y26.244
X50.800
X51.048Y26.224
X51.290Y26.166
X51.503Y26.113
X51.634Y26.084
X51.819Y26.069
X52.002Y26.032
X52.178Y25.974
X52.353Y25.915
X52.519Y25.836
X52.579Y25.807
X52.766Y25.818
X53.138
X53.336Y25.806
X53.531Y25.769
X53.719Y25.708
X53.928Y25.635
X54.124Y25.533
X54.321Y25.665
X54.537Y25.767
X54.764Y25.835
X54.767Y25.836
X54.873Y25.889
X54.979Y25.942
X55.146Y26.021
X55.320Y26.080
X55.509Y26.141
X55.704Y26.178
X55.901Y26.190
X55.919
X56.121Y26.230
X56.326Y26.244
X57.051
X57.206Y26.383
X57.380Y26.502
X57.568Y26.596
X57.765Y26.665
X57.952Y26.724
X0.000
Y28.947
X63.500
Y30.097
X63.287Y30.083
X63.237
X63.200Y30.065
X62.892Y29.937
X62.593Y29.821
X62.466Y29.777
X62.201Y29.671
X61.985Y29.581
X61.759Y29.523
X61.516Y29.465
X61.268Y29.445
X61.109
X60.861Y29.465
X60.618Y29.523
X60.451Y29.562
X60.289Y29.619
X60.134Y29.693
X60.027Y29.747
X59.849Y29.842
X59.683Y29.959
X59.535Y30.096
X59.482Y30.150
X59.429Y30.203
X59.291Y30.351
X59.174Y30.517
X59.079Y30.695
X58.995Y30.874
X58.933Y31.064
X58.913Y31.169
X0.000
Y33.392
X59.306
X59.398Y33.521
X59.535Y33.669
X59.588Y33.722
X59.843Y33.938
X59.863Y34.117
X59.903Y34.292
X59.940Y34.497
X60.003Y34.696
X60.053Y34.845
Y34.859
X60.067Y35.069
X60.109Y35.279
X60.181Y35.483
X60.248Y35.614
X54.251
X54.274Y35.620
X54.437Y35.677
X54.591Y35.751
X54.698Y35.804
X54.804Y35.857
X54.910Y35.911
X55.062Y35.989
X55.204Y36.084
X55.335Y36.194
X55.476
X55.674Y36.206
X55.869Y36.243
X56.057Y36.304
X56.217Y36.357
X56.367Y36.407
X56.558Y36.423
X56.745Y36.463
X56.943Y36.488
X57.136Y36.537
X57.303Y36.576
X57.465Y36.633
X57.620Y36.708
X57.799Y36.803
X57.964Y36.920
X58.113Y37.057
X58.166Y37.111
X58.303Y37.259
X58.421Y37.425
X58.516Y37.603
X58.569Y37.709
X58.629Y37.837
X63.500
Y40.059
X61.305
X61.396Y40.188
X61.492Y40.366
X61.545Y40.473
X61.598Y40.579
X61.682Y40.758
X61.743Y40.948
X61.781Y41.144
X61.793Y41.341
Y41.713
X61.784Y41.882
X61.951Y41.900
X62.115Y41.937
X62.274Y41.990
X62.343Y42.010
X62.646Y42.096
X62.806Y42.149
X62.965Y42.202
X63.140Y42.261
X63.183Y42.282
X63.500
G0Z5.080
G0X52.607Y35.614
G1Z-8.000F300.0
G1X0.000F1000.0
Y37.837
X49.537
X49.486Y37.873
X49.332Y38.014
X49.279Y38.067
X49.142Y38.216
X49.025Y38.381
X48.929Y38.560
X48.845Y38.739
X48.784Y38.929
X48.747Y39.125
X48.734Y39.322
Y39.482
X48.747Y39.679
X48.784Y39.875
X48.844Y40.059
X0.000
Y42.282
X49.430
X49.425Y42.351
Y42.457
X49.439Y42.669
X49.481Y42.876
X49.516Y43.121
X49.588Y43.357
X49.647Y43.532
X49.726Y43.698
X49.780Y43.804
X49.875Y43.983
X49.992Y44.148
X50.129Y44.297
X50.183Y44.350
X50.236Y44.403
X50.347Y44.504
X0.000
Y46.727
X53.233
X53.468Y46.868
X53.757Y47.038
X53.863Y47.091
X53.970Y47.144
X54.076Y47.197
X54.262Y47.284
X54.459Y47.346
X54.661Y47.383
X54.787Y47.414
X55.048Y47.622
X55.324Y47.841
X55.526Y47.994
X55.678Y48.127
X55.846Y48.239
X56.005Y48.346
X56.284Y48.515
X56.573Y48.685
X56.656Y48.727
X56.945Y48.898
X57.049Y48.949
X0.000
Y51.172
X60.111
X60.024Y51.294
X59.929Y51.472
X59.905Y51.517
X59.801Y51.617
X59.747Y51.670
X59.694Y51.724
X59.641Y51.777
X59.519Y51.907
X59.412Y52.051
X59.267Y52.082
X59.249
X59.001Y52.101
X58.758Y52.160
X58.529Y52.255
X58.309Y52.338
X58.104Y52.454
X57.867
X57.644Y52.470
X57.424Y52.517
X57.219Y52.554
X57.021Y52.617
X56.819Y52.688
X56.628Y52.785
X56.451Y52.908
X56.293Y53.052
X56.240Y53.105
X56.187Y53.158
X56.045Y53.314
X55.988Y53.394
X0.000
Y55.617
X55.766
X55.773Y55.648
X55.859Y55.951
X55.974Y56.249
X56.103Y56.558
X56.156Y56.664
X56.251Y56.842
X56.369Y57.008
X56.506Y57.156
X56.559Y57.209
X56.612Y57.263
X56.665Y57.316
X56.814Y57.453
X56.980Y57.570
X57.158Y57.666
X57.344Y57.752
X57.541Y57.815
X57.679Y57.839
X0.000
Y60.062
G0Z5.080
G0X63.500Y57.839
G1Z-8.000F300.0
G1X58.786F1000.0
G0Z5.080
G0X0.000Y60.062
G1Z-8.000F300.0
G1X63.500F1000.0
Y62.284
X0.000
Y64.507
X63.500
Y66.729
X0.000
Y68.952
X63.500
Y71.174
X0.000
Y73.397
X63.500
Y75.619
X0.000
Y77.842
X63.500
Y80.064
X0.000
Y82.287
X63.500
Y84.509
X0.000
Y86.732
X63.500
Y88.842
X63.496Y88.896
X63.460Y88.899
X0.040
G0Z5.080
G0X47.130Y7.662
G1Z-8.000F300.0
G2X46.549Y7.552I-0.581J1.477F1000.0
G1X46.496
G2X45.915Y7.662I0.000J1.588
G1X45.553Y7.812
X45.167Y7.765
X44.902
X44.483Y7.821
X44.092Y7.896
G2X43.608Y8.066I0.278J1.563
G1X43.501Y8.119
G2X43.009Y8.469I0.656J1.445
G1X42.956Y8.522
X42.680Y8.872
X42.500Y9.174
X42.362Y9.515
G2X42.251Y10.096I1.477J0.581
G1Y10.574
G2X42.362Y11.155I1.588J0.000
G1X42.500Y11.496
G2X42.850Y11.989I1.445J-0.656
G1X42.903Y12.042
X42.956Y12.095
X43.009Y12.148
X43.358Y12.424
X43.661Y12.604
X43.969Y12.733
X44.009Y12.753
X44.156Y12.849
X44.458Y13.030
X44.564Y13.083
X44.942Y13.231
X44.922Y13.252
X44.869Y13.305
X44.816Y13.358
X44.763Y13.411
G2X44.413Y13.904I1.096J1.149
G2X44.218Y14.666I1.392J0.763
G1Y14.932
G2X44.403Y15.676I1.588J0.000
G1X44.360Y15.763
X44.306Y15.870
G2X44.111Y16.632I1.392J0.763
G1Y16.898
G2X44.603Y18.047I1.588J0.000
G2X45.330Y18.482I1.149J-1.096
G2X45.911Y18.592I0.581J-1.477
G1X46.230
G2X46.993Y18.397I0.000J-1.588
G1X47.056Y18.366
X47.183Y18.322
X47.343Y18.269
X47.684Y18.131
X47.986Y17.951
G2X48.558Y17.378I-0.799J-1.372
G1X48.643Y17.254
X48.761Y17.143
G2X49.252Y15.995I-1.096J-1.149
G1Y15.782
G2X49.093Y15.089I-1.587J0.000
G1Y14.719
G2X48.898Y13.957I-1.588J0.000
G1X48.845Y13.850
G2X48.585Y13.451I-1.445J0.656
G1X48.335Y13.145
X48.282Y13.092
G2X47.790Y12.742I-1.149J1.096
G1X47.661Y12.679
X47.817Y12.557
X48.123Y12.308
X48.399Y11.958
X48.579Y11.656
X48.717Y11.315
G2X48.827Y10.734I-1.477J-0.581
G1Y10.256
G2X48.750Y9.765I-1.587J0.000
G2X48.579Y9.281I-1.563J0.278
G1X48.526Y9.174
X48.473Y9.068
X48.420Y8.962
X48.366Y8.855
X48.313Y8.749
X48.260Y8.643
G2X47.910Y8.150I-1.445J0.656
G1X47.857Y8.097
G2X47.130Y7.662I-1.149J1.096
G0Z5.080
G0X54.420Y0.053
G1Z-8.000F300.0
G1Y0.319F1000.0
G2X54.536Y0.915I1.588J0.000
G1X54.380Y1.035
G2X53.849Y1.402I0.618J1.462
G2X53.357Y2.551I1.096J1.149
G1Y2.710
G2X53.849Y3.859I1.587J0.000
G1X53.954Y3.959
X53.924Y4.020
X53.884Y4.098
X53.690Y4.271
X53.637Y4.324
X53.583Y4.378
X53.530Y4.431
G2X53.180Y4.923I1.096J1.149
G1X53.127Y5.029
G2X52.942Y5.615I1.392J0.763
G1X52.898Y5.811
X52.561Y6.041
X52.255Y6.291
X52.202Y6.344
G2X51.852Y6.836I1.096J1.149
G1X51.714Y7.177
G2X51.604Y7.758I1.477J0.581
G1Y8.236
G2X51.714Y8.817I1.587J0.000
G1X51.734Y8.886
X51.820Y9.189
X51.844Y9.269
X51.826Y9.387
X51.763Y9.831
Y10.574
G2X51.841Y11.065I1.587J0.000
G2X52.011Y11.550I1.563J-0.278
G1X52.065Y11.656
G2X52.414Y12.148I1.445J-0.656
G1X52.486Y12.218
X52.564Y12.484
G2X52.999Y13.211I1.530J-0.422
G1X53.052Y13.264
G2X53.746Y13.690I1.149J-1.096
G1X53.810Y13.720
X53.916Y13.774
X54.023Y13.827
X54.364Y13.965
G2X54.945Y14.075I0.581J-1.477
G1X55.157
G2X55.648Y13.997I0.000J-1.588
G1X55.657Y13.996
G2X55.483Y14.719I1.413J0.724
G1Y14.985
G2X55.975Y16.134I1.588J0.000
G1X56.028Y16.187
X56.081Y16.240
G2X56.573Y16.590I1.149J-1.096
G1X56.710Y16.657
X56.772Y16.718
X56.825Y16.771
X56.878Y16.825
X56.931Y16.878
X56.984Y16.931
G2X57.453Y17.270I1.149J-1.096
G1X57.719Y17.429
X57.984Y17.588
X58.274Y17.759
X58.582Y17.888
X58.845Y17.993
X58.867Y18.062
X58.646Y18.162
X58.539Y18.216
X58.433Y18.269
X58.144Y18.439
X58.068Y18.478
G2X57.741Y18.034I-1.422J0.705
G1X57.688Y17.981
X57.338Y17.705
G2X56.801Y17.440I-0.959J1.265
G2X56.220Y17.330I-0.581J1.477
G1X55.848
G2X55.267Y17.440I0.000J1.588
G1X54.990Y17.545
X54.573Y17.489
X54.520
X54.112Y17.542
X54.041
G2X53.279Y17.737I0.000J1.588
G1X53.173Y17.791
G2X52.773Y18.050I0.656J1.445
G1X52.468Y18.300
X52.414Y18.353
X52.234Y18.557
X52.057Y18.641
X51.950Y18.694
G2X51.458Y19.044I0.656J1.445
G1X51.405Y19.097
X51.352Y19.150
X51.298Y19.203
X51.245Y19.256
X51.192Y19.309
X51.139Y19.363
X51.086Y19.416
X50.992Y19.513
G2X50.356Y19.703I0.127J1.582
G1X50.250Y19.757
X49.948Y19.937
X49.598Y20.213
X49.322Y20.562
X49.142Y20.865
X49.004Y21.206
X48.957Y21.344
G2X48.496Y21.510I0.302J1.558
G2X48.004Y21.860I0.656J1.445
G1X47.951Y21.913
X47.898Y21.966
X47.622Y22.316
X47.442Y22.618
X47.388Y22.724
X47.335Y22.831
G2X47.140Y23.593I1.392J0.763
G1Y23.912
G2X47.335Y24.675I1.587J0.000
G1X47.515Y24.977
X47.791Y25.327
X47.845Y25.380
G2X48.337Y25.730I1.149J-1.096
G1X48.443Y25.783
X48.550Y25.836
G2X49.312Y26.031I0.763J-1.392
G1X49.326
X49.475Y26.080
X49.778Y26.166
G2X50.269Y26.244I0.490J-1.510
G1X50.800
G2X51.290Y26.166I0.000J-1.588
G1X51.503Y26.113
X51.634Y26.084
G2X52.178Y25.974I-0.037J-1.587
G1X52.519Y25.836
X52.579Y25.807
X52.766Y25.818
X53.138
G2X53.719Y25.708I0.000J-1.588
G1X54.124Y25.533
G2X54.764Y25.835I0.980J-1.249
G1X54.767Y25.836
X54.873Y25.889
X54.979Y25.942
X55.320Y26.080
G2X55.901Y26.190I0.581J-1.477
G1X55.919
X56.326Y26.244
X57.051
G2X57.765Y26.665I1.136J-1.109
G1X58.177Y26.766
X58.349Y26.824
X58.476Y26.868
X58.539Y26.899
X58.848Y27.027
X58.911Y27.058
X58.994Y27.100
X59.283Y27.271
X59.390Y27.324
X59.496Y27.377
X59.602Y27.430
G2X60.087Y27.601I0.763J-1.392
G1X60.477Y27.675
X60.855Y27.731
X60.973Y27.771
X61.239Y27.878
X61.537Y27.993
X61.697Y28.046
X62.000Y28.132
X62.313Y28.200
X62.478Y28.238
X62.514Y28.250
X62.578Y28.280
G2X63.341Y28.475I0.763J-1.392
G1X63.500
Y30.097
X63.287Y30.083
X63.237
X63.200Y30.065
X62.892Y29.937
X62.593Y29.821
X62.466Y29.777
X62.201Y29.671
G2X61.759Y29.523I-0.720J1.415
G2X61.268Y29.445I-0.490J1.510
G1X61.109
G2X60.618Y29.523I0.000J1.588
G2X60.134Y29.693I0.278J1.563
G1X60.027Y29.747
G2X59.535Y30.096I0.656J1.445
G1X59.482Y30.150
X59.429Y30.203
G2X59.079Y30.695I1.096J1.149
G2X58.884Y31.458I1.392J0.763
G1Y31.777
X58.937Y32.184
Y32.255
G2X59.047Y32.836I1.588J0.000
G1X59.185Y33.177
G2X59.535Y33.669I1.445J-0.656
G1X59.588Y33.722
X59.843Y33.938
X59.903Y34.292
X60.003Y34.696
X60.053Y34.845
Y34.859
G2X60.545Y36.007I1.587J0.000
G2X61.239Y36.433I1.149J-1.096
G2X61.959Y36.605I0.720J-1.415
G1X62.116
X62.388Y36.708
X62.691Y36.794
G2X63.181Y36.871I0.490J-1.510
G1X63.447
X63.500Y36.870
Y42.437
X63.412Y42.393
X63.306Y42.340
X62.965Y42.202
X62.806Y42.149
X62.646Y42.096
X62.343Y42.010
X62.274Y41.990
G2X61.784Y41.882I-0.581J1.477
G1X61.793Y41.713
Y41.341
G2X61.598Y40.579I-1.587J0.000
G1X61.545Y40.473
X61.492Y40.366
G2X61.142Y39.874I-1.445J0.656
G1X61.089Y39.821
X61.035Y39.768
X60.982Y39.714
X60.929Y39.661
X60.876Y39.608
X60.823Y39.555
X60.770Y39.502
X60.717Y39.449
X60.663Y39.396
G2X60.171Y39.046I-1.149J1.096
G1X60.065Y38.993
X59.724Y38.854
X59.564Y38.801
G2X58.983Y38.691I-0.581J1.477
G1X58.764
Y38.472
G2X58.569Y37.709I-1.588J0.000
G1X58.516Y37.603
G2X58.166Y37.111I-1.445J0.656
G1X58.113Y37.057
G2X57.620Y36.708I-1.149J1.096
G2X57.136Y36.537I-0.763J1.392
G1X56.745Y36.463
X56.367Y36.407
X56.217Y36.357
X56.057Y36.304
G2X55.476Y36.194I-0.581J1.477
G1X55.335
G2X54.910Y35.911I-1.081J1.162
G1X54.804Y35.857
X54.698Y35.804
X54.591Y35.751
G2X54.107Y35.581I-0.763J1.392
G2X53.616Y35.503I-0.490J1.510
G1X53.191
G2X52.429Y35.698I0.000J1.588
G1X52.322Y35.751
G2X51.830Y36.101I0.656J1.445
G1X51.554Y36.451
X51.385Y36.729
X51.350Y36.778
X51.278
G2X50.516Y36.973I0.000J1.588
G2X50.023Y37.323I0.656J1.445
G1X49.970Y37.376
X49.917Y37.429
X49.656Y37.753
X49.332Y38.014
X49.279Y38.067
G2X48.929Y38.560I1.096J1.149
G2X48.734Y39.322I1.392J0.763
G1Y39.482
G2X48.929Y40.244I1.588J0.000
G2X49.719Y41.033I1.445J-0.656
G1X49.776Y41.063
X49.726Y41.163
X49.673Y41.270
G2X49.481Y41.932I1.392J0.763
G1X49.425Y42.351
Y42.457
X49.481Y42.876
G2X49.588Y43.357I1.584J-0.100
G1X49.726Y43.698
X49.780Y43.804
G2X50.129Y44.297I1.445J-0.656
G1X50.183Y44.350
X50.236Y44.403
X50.585Y44.679
X50.888Y44.859
G2X51.473Y45.045I0.763J-1.392
G1X51.616Y45.079
X51.693Y45.239
X51.746Y45.345
X51.799Y45.452
G2X52.149Y45.944I1.445J-0.656
G1X52.202Y45.997
X52.255Y46.050
X52.308Y46.104
X52.361Y46.157
X52.711Y46.433
X53.013Y46.613
X53.119Y46.666
X53.202Y46.708
X53.468Y46.868
X53.757Y47.038
X53.863Y47.091
X53.970Y47.144
X54.076Y47.197
G2X54.661Y47.383I0.763J-1.392
G1X54.787Y47.414
X55.048Y47.622
X55.324Y47.841
X55.526Y47.994
X55.846Y48.239
X56.005Y48.346
X56.284Y48.515
X56.573Y48.685
X56.656Y48.727
X56.945Y48.898
X57.052Y48.951
X57.158Y49.004
X57.264Y49.057
X57.370Y49.110
X57.679Y49.239
X58.026Y49.367
X58.309Y49.554
X58.555Y49.748
X58.578Y49.770
X58.632Y49.823
G2X59.124Y50.173I1.149J-1.096
G1X59.230Y50.226
X59.571Y50.364
G2X60.052Y50.471I0.581J-1.477
G1X60.166Y50.498
X60.195Y50.553
X60.248Y50.659
X60.362Y50.868
X60.371Y50.891
X60.279Y50.980
G2X59.929Y51.472I1.096J1.149
G1X59.905Y51.517
X59.801Y51.617
X59.747Y51.670
X59.694Y51.724
X59.641Y51.777
X59.412Y52.051
X59.267Y52.082
X59.249
G2X58.529Y52.255I0.000J1.587
G2X58.104Y52.454I0.454J1.521
G1X57.867
X57.424Y52.517
X57.021Y52.617
G2X56.293Y53.052I0.422J1.530
G1X56.240Y53.105
X56.187Y53.158
G2X55.695Y54.307I1.096J1.149
G1Y55.157
G2X55.773Y55.648I1.587J0.000
G1X55.859Y55.951
X55.974Y56.249
X56.103Y56.558
X56.156Y56.664
G2X56.506Y57.156I1.445J-0.656
G1X56.559Y57.209
X56.612Y57.263
X56.665Y57.316
G2X57.158Y57.666I1.149J-1.096
G2X57.743Y57.851I0.763J-1.392
G1X58.186Y57.914
X58.239
X58.658Y57.858
G2X59.139Y57.751I-0.100J-1.584
G1X59.480Y57.612
X59.586Y57.559
X59.693Y57.506
X59.995Y57.326
X60.295Y57.100
X60.330Y57.081
X60.437Y57.028
X60.543Y56.975
X60.649Y56.922
X60.755Y56.868
X60.862Y56.815
X61.020Y56.733
X61.138Y56.678
X61.278Y56.630
G2X61.871Y56.443I-0.169J-1.579
G1X62.169Y56.267
X62.331
X62.774Y56.204
G2X63.299Y56.050I-0.177J-1.578
G1X63.500Y56.022
Y88.842
X63.496Y88.896
X63.442Y88.900
X0.058
X0.004Y88.896
X0.000Y88.842
Y0.111
X0.004Y0.057
X0.058Y0.053
X54.420
G0Z5.080
G0X54.048Y0.054
G1Z-9.000F300.0
G1X0.040F1000.0
X0.004Y0.057
X0.000Y0.111
Y2.277
X38.913
X38.900Y2.316
X38.863Y2.512
X38.851Y2.710
Y2.869
X38.863Y3.067
X38.900Y3.263
X38.962Y3.453
X39.046Y3.632
X39.141Y3.810
X39.258Y3.976
X39.396Y4.125
X39.449Y4.178
X39.502Y4.231
X39.555Y4.284
X39.704Y4.421
X39.814Y4.499
X0.000
Y6.722
X40.460
X40.503Y6.854
X40.587Y7.033
X40.640Y7.139
X40.735Y7.318
X40.853Y7.483
X40.990Y7.632
X41.134Y7.765
X41.295Y7.881
X41.468Y7.975
X41.405Y8.075
X41.298Y8.234
X41.192Y8.394
X41.086Y8.553
X40.906Y8.855
X40.861Y8.944
X0.000
Y11.167
X41.132
X41.192Y11.267
X41.318Y11.452
X41.468Y11.617
X41.578Y11.722
X41.561Y11.956
Y12.115
X41.599Y12.463
X41.596Y12.469
X41.512Y12.648
X41.451Y12.838
X41.414Y13.034
X41.401Y13.231
Y13.389
X0.000
Y15.612
X42.450
X42.430Y15.694
X42.411Y15.941
Y16.154
X42.423Y16.351
X42.460Y16.547
X42.521Y16.735
X42.580Y16.910
X42.659Y17.076
X42.785Y17.301
X42.783Y17.376
Y17.834
X0.000
Y20.057
X45.221
X45.153Y20.209
X44.975Y20.332
X44.816Y20.478
X44.763Y20.532
X44.625Y20.680
X44.508Y20.846
X44.413Y21.024
X44.318Y21.231
X44.253Y21.452
X44.221Y21.677
X44.147Y21.821
X44.063Y22.000
X44.001Y22.190
X43.984Y22.279
X0.000
Y24.502
X37.669
X37.657Y24.515
X37.535Y24.692
X37.437Y24.883
X37.367Y25.085
X37.306Y25.273
X37.269Y25.468
X37.256Y25.666
Y25.719
X37.269Y25.916
X37.306Y26.112
X37.367Y26.300
X37.426Y26.474
X37.505Y26.641
X37.549Y26.724
X0.000
Y28.947
X42.722
X42.829Y28.954
X43.042
X43.136Y28.947
X43.871
G0Z5.080
G0X55.470Y26.724
G1Z-9.000F300.0
G1X52.547F1000.0
X52.511Y26.800
X52.341Y27.090
X52.299Y27.172
X52.245Y27.278
X52.168Y27.428
X52.150Y27.485
X52.111Y27.652
X52.054Y27.814
X51.980Y27.969
X51.927Y28.076
X51.747Y28.378
X51.621Y28.562
X51.471Y28.727
X51.306Y28.878
X51.204Y28.947
X59.686
X59.600Y28.963
X59.412Y29.024
X59.237Y29.083
X59.071Y29.162
X58.965Y29.215
X58.858Y29.268
X58.680Y29.363
X58.514Y29.481
X58.366Y29.618
X58.313Y29.671
X58.260Y29.724
X58.236Y29.747
X58.081Y29.860
X57.941Y29.990
X57.888Y30.043
X57.834Y30.096
X57.781Y30.150
X57.728Y30.203
X57.591Y30.351
X57.474Y30.517
X57.378Y30.695
X57.292Y30.881
X57.229Y31.078
X57.213Y31.169
X0.000
Y33.392
X57.945
X58.095Y33.499
X58.274Y33.594
X58.380Y33.647
X58.596Y33.745
X58.825Y33.810
X59.096Y34.025
Y34.221
X59.116Y34.469
X59.174Y34.711
X59.202Y34.841
Y35.018
X59.215Y35.215
X59.252Y35.411
X59.313Y35.599
X59.318Y35.614
X55.258
X55.307Y35.632
X55.473Y35.715
X55.582
X55.780Y35.728
X55.975Y35.765
X56.163Y35.826
X56.477Y35.949
X56.627Y35.981
X56.858
X57.106Y36.001
X57.348Y36.059
X57.515Y36.098
X57.678Y36.155
X57.833Y36.229
X57.939Y36.283
X58.118Y36.378
X58.283Y36.495
X58.432Y36.632
X58.485Y36.686
X58.538Y36.739
X58.591Y36.792
X58.644Y36.845
X58.781Y36.994
X58.899Y37.159
X58.994Y37.337
X59.047Y37.444
X59.131Y37.623
X59.193Y37.813
X59.197Y37.837
X63.500
Y40.059
X62.052
G0Z5.080
G0X49.992Y35.614
G1Z-9.000F300.0
G1X38.879F1000.0
X38.871Y35.514
X38.813Y35.272
X38.774Y35.104
X38.716Y34.942
X38.642Y34.787
X38.547Y34.608
X38.429Y34.443
X38.292Y34.294
X38.144Y34.157
X37.978Y34.040
X37.800Y33.944
X37.621Y33.860
X37.431Y33.799
X37.235Y33.762
X37.037Y33.749
X36.825
X36.577Y33.769
X36.334Y33.827
X36.105Y33.922
X35.796Y34.051
X35.690Y34.104
X35.512Y34.199
X35.346Y34.317
X35.198Y34.454
X35.145Y34.507
X35.007Y34.655
X34.890Y34.821
X34.795Y34.999
X34.711Y35.179
X34.649Y35.368
X34.612Y35.564
X34.609Y35.614
X0.000
Y37.837
X46.032
X46.024Y37.941
Y37.994
X46.044Y38.242
X46.102Y38.484
X46.187Y38.787
X46.258Y38.989
X46.356Y39.180
X46.478Y39.357
X46.622Y39.514
X46.675Y39.568
X46.729Y39.621
X46.782Y39.674
X46.835Y39.727
X46.995Y39.873
X47.173Y39.996
X47.201Y40.059
X42.722
X42.809Y40.139
X42.862Y40.193
X42.999Y40.341
X43.117Y40.507
X43.212Y40.685
X43.265Y40.791
X43.349Y40.971
X43.411Y41.160
X43.448Y41.356
X43.460Y41.554
Y41.926
X43.448Y42.124
X43.418Y42.282
X48.554
X48.599Y42.469
X48.654Y42.687
X48.739Y42.894
X48.787Y43.183
Y43.201
X48.800Y43.399
X48.837Y43.594
X48.898Y43.782
X48.951Y43.942
X49.016Y44.131
X49.105Y44.312
X49.216Y44.479
X49.232Y44.504
G0Z5.080
G0X37.565Y40.059
G1Z-9.000F300.0
G1X0.000F1000.0
Y42.282
X37.335
G0Z5.080
G0X49.232Y44.504
G1Z-9.000F300.0
G1X0.000F1000.0
Y46.727
X51.762
X51.777Y46.741
X51.830Y46.794
X51.883Y46.848
X52.032Y46.985
X52.197Y47.102
X52.375Y47.197
X52.458Y47.240
X52.747Y47.410
X52.854Y47.463
X52.960Y47.516
X53.268Y47.645
X53.332Y47.676
X53.432Y47.726
X53.637Y47.963
X53.690Y48.017
X53.743Y48.070
X53.796Y48.123
X53.849Y48.176
X54.014Y48.326
X54.199Y48.452
X54.501Y48.632
X54.607Y48.685
X54.714Y48.738
X54.796Y48.781
X55.083Y48.949
X0.000
Y51.172
X54.207
Y51.597
X54.220Y51.795
X54.257Y51.990
X54.318Y52.178
X54.383Y52.368
X54.472Y52.548
X54.583Y52.715
X54.708Y52.900
X54.859Y53.065
X54.757Y53.267
X54.713Y53.394
X0.000
Y55.617
X54.785
X54.849Y55.845
X54.898Y55.994
Y56.114
X54.911Y56.311
X54.948Y56.507
X55.009Y56.697
X55.093Y56.876
X55.147Y56.983
X55.200Y57.089
X55.253Y57.195
X55.348Y57.374
X55.466Y57.539
X55.603Y57.688
X55.656Y57.741
X55.709Y57.794
X55.754Y57.839
X0.000
Y60.062
G0Z5.080
G0X63.500Y57.839
G1Z-9.000F300.0
G1X60.036F1000.0
G0Z5.080
G0X0.000Y60.062
G1Z-9.000F300.0
G1X63.500F1000.0
Y62.284
X0.000
Y64.507
X63.500
Y66.729
X0.000
Y68.952
X63.500
Y71.174
X0.000
Y73.397
X63.500
Y75.619
X0.000
Y77.842
X63.500
Y80.064
X0.000
Y82.287
X63.500
Y84.509
X0.000
Y86.732
X63.500
Y88.842
X63.496Y88.896
X63.460Y88.899
X0.040
G0Z5.080
G0X47.438Y2.277
G1Z-9.000F300.0
G1X51.880F1000.0
X51.869Y2.444
Y2.710
X51.882Y2.908
X51.919Y3.104
X51.980Y3.293
X52.065Y3.473
X52.245Y3.775
X52.370Y3.959
X52.521Y4.125
X52.686Y4.275
X52.870Y4.400
X52.989Y4.482
X52.979Y4.499
X47.374
X47.357Y4.535
X47.262Y4.714
X47.144Y4.879
X47.007Y5.028
X46.954Y5.081
X46.901Y5.134
X46.873Y5.163
X46.772Y5.386
X46.750Y5.434
X46.970Y5.470
X47.183Y5.537
X47.384Y5.607
X47.576Y5.705
X47.753Y5.828
X47.910Y5.972
X47.963Y6.025
X48.017Y6.078
X48.070Y6.131
X48.123Y6.184
X48.273Y6.349
X48.399Y6.534
X48.505Y6.693
X48.522Y6.722
X51.353
X51.290Y6.856
X51.228Y7.046
X51.191Y7.242
X51.179Y7.439
Y7.918
X51.191Y8.115
X51.228Y8.310
X51.289Y8.499
X51.342Y8.658
X51.395Y8.817
X51.437Y8.944
X49.050
X49.083Y9.122
X49.130Y9.341
X49.146Y9.565
Y9.583
X49.183Y9.766
X49.199Y9.953
X49.239Y10.156
X49.252Y10.362
Y11.053
X49.246Y11.167
X51.392
X51.405Y11.370
X51.447Y11.578
X51.479Y11.807
X51.543Y12.030
X51.639Y12.240
X51.693Y12.347
X51.746Y12.453
X51.799Y12.559
X51.852Y12.666
X52.032Y12.968
X52.158Y13.152
X52.308Y13.317
X52.361Y13.371
X52.380Y13.389
X50.923
X50.970Y13.478
X51.023Y13.585
X51.110Y13.771
X51.172Y13.968
X51.209Y14.170
X51.256Y14.389
X51.272Y14.613
Y14.666
X51.259Y14.864
X51.222Y15.059
X51.161Y15.247
X51.036Y15.565
X51.040Y15.612
X52.338
G0Z5.080
G0X53.355
G1Z-9.000F300.0
G1X53.385F1000.0
G0Z5.080
G0X60.938Y28.947
G1Z-9.000F300.0
G1X62.297F1000.0
G0Z5.080
G0X0.000Y0.111
G1Z-9.000F300.0
G1X0.004Y0.057F1000.0
X0.058Y0.053
X54.048
Y0.213
X54.048Y0.222
X53.976Y0.244
G2X53.491Y0.414I0.278J1.563
G1X53.385Y0.467
X53.083Y0.648
X52.923Y0.754
X52.574Y1.030
X52.521Y1.083
X52.468Y1.136
X52.414Y1.189
G2X52.065Y1.682I1.096J1.149
G2X51.869Y2.444I1.392J0.763
G1Y2.710
G2X52.065Y3.473I1.588J0.000
G1X52.245Y3.775
X52.521Y4.125
X52.870Y4.400
X52.989Y4.482
X52.862Y4.711
X52.808Y4.817
X52.755Y4.923
X52.617Y5.264
X52.564Y5.424
X52.530Y5.518
G2X52.136Y5.775I0.661J1.443
G1X51.830Y6.025
X51.777Y6.078
G2X51.427Y6.570I1.096J1.149
G1X51.374Y6.677
G2X51.179Y7.439I1.392J0.763
G1Y7.918
G2X51.289Y8.499I1.587J0.000
G1X51.342Y8.658
X51.395Y8.817
X51.448Y8.977
X51.501Y9.136
X51.522Y9.205
X51.525Y9.219
X51.497Y9.512
Y9.636
X51.445Y10.006
X51.391Y10.415
Y11.159
X51.447Y11.578
G2X51.639Y12.240I1.584J-0.100
G1X51.693Y12.347
X51.746Y12.453
X51.799Y12.559
X51.852Y12.666
X52.032Y12.968
X52.308Y13.317
X52.361Y13.371
X52.414Y13.424
X52.468Y13.477
X52.521Y13.530
X52.574Y13.583
X52.627Y13.636
G2X53.119Y13.986I1.149J-1.096
G1X53.226Y14.039
X53.332Y14.092
X53.438Y14.145
X53.740Y14.272
G2X53.676Y14.719I1.523J0.447
G1Y15.091
X53.719Y15.457
X53.491Y15.559
X53.380Y15.615
X53.032Y15.576
X52.660
G2X52.079Y15.686I0.000J1.588
G2X51.352Y16.121I0.422J1.530
G1X51.298Y16.174
X51.274Y16.198
X51.152Y16.068
X51.099Y16.015
X51.059Y15.975
Y15.835
X51.036Y15.565
X51.161Y15.247
G2X51.272Y14.666I-1.477J-0.581
G1Y14.613
X51.209Y14.170
G2X51.023Y13.585I-1.578J0.177
G1X50.970Y13.478
G2X50.620Y12.986I-1.445J0.656
G1X50.567Y12.933
X50.514Y12.880
X50.461Y12.827
X50.408Y12.773
X50.355Y12.720
X50.302Y12.667
X50.248Y12.614
X50.195Y12.561
X50.142Y12.508
X50.089Y12.455
X50.036Y12.401
X49.983Y12.348
X49.930Y12.295
X49.907Y12.272
X49.664Y11.976
X49.611Y11.923
X49.558Y11.870
X49.504Y11.817
X49.199Y11.567
X49.174Y11.546
G2X49.252Y11.053I-1.509J-0.493
G1Y10.362
X49.199Y9.953
X49.146Y9.583
Y9.565
X49.083Y9.122
X49.040Y8.892
Y8.502
G2X48.930Y7.923I-1.588J0.000
G1X48.870Y7.581
G2X48.685Y6.996I-1.578J0.177
G1X48.505Y6.693
X48.399Y6.534
X48.123Y6.184
X48.070Y6.131
X48.017Y6.078
X47.963Y6.025
X47.910Y5.972
G2X47.183Y5.537I-1.149J1.096
G1X46.750Y5.434
X46.772Y5.386
X46.873Y5.163
X46.901Y5.134
X46.954Y5.081
X47.007Y5.028
G2X47.357Y4.535I-1.096J-1.149
G1X47.495Y4.194
G2X47.605Y3.613I-1.477J-0.581
G1Y3.082
G2X47.527Y2.592I-1.587J0.000
G1X47.442Y2.288
X47.389Y2.129
X47.336Y1.970
X47.197Y1.629
G2X46.848Y1.136I-1.445J0.656
G1X46.794Y1.083
X46.741Y1.030
X46.688Y0.977
G2X46.196Y0.627I-1.149J1.096
G1X45.855Y0.489
G2X45.274Y0.379I-0.581J1.477
G1X43.733
X43.290Y0.442
X42.886Y0.542
X42.545Y0.680
X42.439Y0.733
X42.332Y0.786
X42.326Y0.789
X42.156Y0.761
X41.713Y0.697
X41.448
X41.040Y0.751
X40.969
G2X40.388Y0.861I0.000J1.588
G1X40.229Y0.914
G2X39.502Y1.349I0.422J1.530
G1X39.449Y1.402
X39.396Y1.455
G2X39.046Y1.947I1.096J1.149
G2X38.851Y2.710I1.392J0.763
G1Y2.869
G2X39.046Y3.632I1.588J0.000
G2X39.396Y4.125I1.445J-0.656
G1X39.449Y4.178
X39.502Y4.231
X39.555Y4.284
G2X40.047Y4.634I1.149J-1.096
G1X40.154Y4.687
X40.495Y4.825
X40.552Y4.846
X40.551Y4.889
Y5.261
X40.551Y5.274
X40.502Y5.424
G2X40.392Y6.005I1.477J0.581
G1Y6.270
G2X40.587Y7.033I1.588J0.000
G1X40.640Y7.139
G2X40.990Y7.632I1.445J-0.656
G2X41.468Y7.975I1.149J-1.096
G1X41.405Y8.075
X41.298Y8.234
X41.192Y8.394
X41.086Y8.553
X40.906Y8.855
X40.852Y8.962
G2X40.657Y9.724I1.392J0.763
G1Y9.884
G2X40.852Y10.646I1.588J0.000
G1X40.906Y10.753
X40.959Y10.859
X41.012Y10.965
X41.192Y11.267
X41.468Y11.617
X41.578Y11.722
X41.561Y11.956
Y12.115
X41.599Y12.463
X41.596Y12.469
G2X41.401Y13.231I1.392J0.763
G1Y13.603
G2X41.784Y14.637I1.587J0.000
G2X42.106Y15.071I1.418J-0.715
G1X42.159Y15.124
X42.212Y15.177
X42.265Y15.230
X42.318Y15.284
X42.371Y15.337
X42.424Y15.390
X42.488Y15.453
G2X42.411Y15.941I1.510J0.489
G1Y16.154
G2X42.521Y16.735I1.588J0.000
G1X42.659Y17.076
X42.785Y17.301
X42.783Y17.376
Y17.908
G2X42.978Y18.670I1.588J0.000
G2X43.328Y19.163I1.445J-0.656
G1X43.381Y19.216
X43.434Y19.269
X43.487Y19.322
G2X44.358Y19.789I1.149J-1.096
G2X44.849Y19.867I0.490J-1.510
G1X45.310
X45.263Y19.961
X45.153Y20.209
X44.816Y20.478
X44.763Y20.532
G2X44.413Y21.024I1.096J1.149
G2X44.221Y21.677I1.392J0.763
G1X44.147Y21.821
G2X43.952Y22.584I1.392J0.763
G1Y22.903
G2X44.062Y23.484I1.588J0.000
G2X44.337Y24.034I1.530J-0.422
G1X44.283Y24.008
X43.942Y23.870
G2X43.361Y23.759I-0.581J1.477
G1X43.095
X42.676Y23.816
X42.325Y23.878
G2X41.784Y23.716I-0.718J1.416
G1X41.341Y23.653
X41.076
G2X40.585Y23.731I0.000J1.588
G2X40.143Y23.879I0.278J1.563
G1X40.107Y23.890
X39.991Y23.915
G2X39.428Y23.812I-0.562J1.485
G1X39.056
G2X38.294Y24.008I0.000J1.588
G2X37.801Y24.357I0.656J1.445
G2X37.367Y25.085I1.096J1.149
G2X37.256Y25.666I1.477J0.581
G1Y25.719
G2X37.367Y26.300I1.588J0.000
G1X37.505Y26.641
G2X37.855Y27.133I1.445J-0.656
G1X37.908Y27.186
X37.961Y27.240
G2X38.453Y27.589I1.149J-1.096
G1X38.513Y27.620
X38.652Y27.771
X39.001Y28.047
X39.304Y28.227
X39.410Y28.280
G2X39.995Y28.465I0.763J-1.392
G1X40.438Y28.529
X40.668
X41.076Y28.582
X41.660
X41.714Y28.581
G2X42.248Y28.843I0.955J-1.268
G2X42.829Y28.954I0.581J-1.477
G1X43.042
X43.485Y28.891
X43.755Y28.836
X43.806Y28.887
G2X44.955Y29.379I1.149J-1.096
G1X45.114
X45.180Y29.377
X45.592Y29.432
X46.354
X46.762Y29.485
X48.533
X48.763Y29.528
X49.206Y29.591
X49.418
X49.861Y29.528
X50.174Y29.460
G2X50.659Y29.290I-0.278J-1.563
G1X50.962Y29.110
X51.121Y29.003
X51.471Y28.727
X51.747Y28.378
X51.927Y28.076
X51.980Y27.969
G2X52.150Y27.485I-1.392J-0.763
G1X52.168Y27.428
X52.245Y27.278
X52.299Y27.172
X52.341Y27.090
X52.511Y26.800
X52.597Y26.616
X52.766
X53.173Y26.562
X53.297
X53.594Y26.534
X53.673Y26.559
G2X54.217Y26.668I0.581J-1.477
G1X54.626Y26.722
X55.210
X55.400Y26.710
X55.679Y26.766
G2X56.191Y27.027I0.966J-1.260
G2X56.654Y27.179I0.720J-1.415
G1X56.935Y27.293
X57.200Y27.399
G2X57.743Y27.562I0.720J-1.415
G1X57.765Y27.568
G2X58.245Y27.675I0.581J-1.477
G1X58.664Y27.731
X58.682
X58.812Y27.760
X58.880Y27.781
X59.040Y27.834
X59.199Y27.887
X59.291Y27.920
X59.549Y28.068
X59.655Y28.121
X59.996Y28.259
X60.156Y28.312
X60.315Y28.365
X60.475Y28.418
X60.878Y28.519
X61.044Y28.557
X61.256Y28.610
X61.469Y28.663
G2X61.959Y28.741I0.490J-1.510
G1X61.977
X62.066Y28.762
G2X62.525Y29.077I1.115J-1.130
G2X63.287Y29.272I0.763J-1.392
G1X63.500
Y29.566
X63.287Y29.551
X62.865
X62.626Y29.458
X62.562Y29.428
X62.456Y29.375
X62.350Y29.321
G2X61.865Y29.151I-0.763J1.392
G2X61.411Y29.074I-0.490J1.510
G1X61.280Y29.045
X61.212Y29.024
G2X60.631Y28.914I-0.581J1.477
G1X59.993
G2X59.412Y29.024I0.000J1.588
G1X59.071Y29.162
X58.965Y29.215
X58.858Y29.268
G2X58.366Y29.618I0.656J1.445
G1X58.313Y29.671
X58.260Y29.724
X58.236Y29.747
X57.941Y29.990
X57.888Y30.043
X57.834Y30.096
X57.781Y30.150
X57.728Y30.203
G2X57.378Y30.695I1.096J1.149
G2X57.193Y31.280I1.392J0.763
G1X57.130Y31.723
Y31.777
G2X57.208Y32.267I1.587J0.000
G2X57.675Y33.138I1.563J-0.278
G1X57.728Y33.191
X57.781Y33.244
G2X58.274Y33.594I1.149J-1.096
G1X58.380Y33.647
G2X58.825Y33.810I0.763J-1.392
G1X59.096Y34.025
Y34.221
G2X59.174Y34.711I1.587J0.000
G1X59.202Y34.841
Y35.018
G2X59.313Y35.599I1.587J0.000
G1X59.451Y35.940
G2X59.801Y36.432I1.445J-0.656
G1X59.854Y36.486
X59.907Y36.539
X59.960Y36.592
X60.013Y36.645
X60.066Y36.698
G2X60.559Y37.048I1.149J-1.096
G1X60.665Y37.101
G2X61.150Y37.272I0.763J-1.392
G2X61.640Y37.349I0.490J-1.510
G1X61.959
X62.402Y37.286
X62.715Y37.219
X62.756Y37.211
X63.075Y37.243
X63.500
Y42.038
X63.466Y42.021
X63.359Y41.968
X63.253Y41.915
X63.147Y41.862
X62.806Y41.724
X62.590Y41.656
Y41.395
G2X62.395Y40.632I-1.588J0.000
G1X62.342Y40.526
X62.162Y40.223
X62.055Y40.064
X61.949Y39.904
X61.843Y39.745
X61.567Y39.396
X61.514Y39.342
X61.461Y39.289
X61.407Y39.236
X61.354Y39.183
X61.301Y39.130
X60.952Y38.854
X60.673Y38.685
X60.384Y38.514
X60.043Y38.376
X59.883Y38.323
G2X59.302Y38.213I-0.581J1.477
G1X59.242
Y38.206
G2X59.047Y37.444I-1.588J0.000
G1X58.994Y37.337
G2X58.644Y36.845I-1.445J0.656
G1X58.591Y36.792
X58.538Y36.739
X58.485Y36.686
X58.432Y36.632
G2X57.939Y36.283I-1.149J1.096
G1X57.833Y36.229
G2X57.348Y36.059I-0.763J1.392
G2X56.858Y35.981I-0.490J1.510
G1X56.627
X56.477Y35.949
X56.163Y35.826
G2X55.582Y35.715I-0.581J1.477
G1X55.473
X55.133Y35.569
X54.868Y35.463
X54.602Y35.357
X54.538Y35.326
X54.432Y35.273
X54.326Y35.220
X53.985Y35.082
X53.825Y35.028
X53.422Y34.928
X52.979Y34.865
X52.819
X52.400Y34.922
G2X51.738Y35.114I0.100J1.584
G1X51.632Y35.167
X51.402Y35.295
X51.278Y35.290
X51.119
G2X50.628Y35.368I0.000J1.588
G2X50.144Y35.539I0.278J1.563
G1X50.037Y35.592
X49.931Y35.645
X49.825Y35.698
X49.719Y35.751
X49.581Y35.822
X49.365
X49.003Y35.864
G2X48.462Y35.769I-0.541J1.492
G1X48.037
G2X47.078Y36.091I0.000J1.588
G1X46.729Y36.367
X46.675Y36.420
X46.400Y36.769
G2X46.102Y37.450I1.265J0.959
G2X46.024Y37.941I1.510J0.490
G1Y37.994
G2X46.102Y38.484I1.588J0.000
G1X46.187Y38.787
G2X46.622Y39.514I1.530J-0.422
G1X46.675Y39.568
X46.729Y39.621
X46.782Y39.674
X46.835Y39.727
X47.173Y39.996
X47.282Y40.244
X47.335Y40.350
G2X47.685Y40.843I1.445J-0.656
G1X47.738Y40.896
X47.791Y40.949
X47.845Y41.002
X47.898Y41.055
X48.247Y41.331
X48.523Y41.499
X48.522Y41.554
Y41.979
G2X48.599Y42.469I1.588J0.000
G1X48.739Y42.894
X48.787Y43.183
Y43.201
G2X48.898Y43.782I1.587J0.000
G1X48.951Y43.942
G2X49.216Y44.479I1.530J-0.422
G1X49.290Y44.594
X49.323Y44.686
X49.461Y45.027
X49.641Y45.329
X49.917Y45.678
X49.970Y45.732
G2X50.463Y46.081I1.149J-1.096
G1X50.569Y46.135
X50.675Y46.188
G2X51.429Y46.383I0.763J-1.392
G1X51.564Y46.529
X51.617Y46.582
X51.670Y46.635
X51.724Y46.688
X51.777Y46.741
X51.830Y46.794
X51.883Y46.848
G2X52.375Y47.197I1.149J-1.096
G1X52.458Y47.240
X52.747Y47.410
X52.854Y47.463
X52.960Y47.516
X53.268Y47.645
X53.332Y47.676
X53.432Y47.726
X53.637Y47.963
X53.690Y48.017
X53.743Y48.070
X53.796Y48.123
X53.849Y48.176
X54.199Y48.452
X54.501Y48.632
X54.607Y48.685
X54.714Y48.738
X54.796Y48.781
X55.086Y48.951
X55.192Y49.004
X55.298Y49.057
X55.624Y49.191
X55.617Y49.195
X55.511Y49.248
X55.404Y49.301
G2X54.912Y49.651I0.656J1.445
G1X54.859Y49.704
X54.806Y49.757
G2X54.456Y50.250I1.096J1.149
G1X54.403Y50.356
G2X54.207Y51.119I1.392J0.763
G1Y51.597
G2X54.318Y52.178I1.587J0.000
G2X54.583Y52.715I1.530J-0.422
G1X54.859Y53.065
G2X54.643Y53.705I1.361J0.817
G1X54.579Y54.148
Y54.520
G2X54.657Y55.010I1.588J0.000
G1X54.689Y55.151
X54.763Y55.541
X54.849Y55.845
X54.898Y55.994
Y56.114
G2X55.093Y56.876I1.587J0.000
G1X55.147Y56.983
X55.200Y57.089
X55.253Y57.195
G2X55.603Y57.688I1.445J-0.656
G1X55.656Y57.741
X55.709Y57.794
X55.762Y57.847
X55.815Y57.900
X56.111Y58.143
X56.430Y58.389
X56.590Y58.495
G2X57.371Y58.807I0.959J-1.265
G1X57.814Y58.870
X58.027
G2X58.517Y58.793I0.000J-1.588
G2X59.198Y58.495I-0.278J-1.563
G1X59.548Y58.219
X59.601Y58.166
X59.654Y58.113
X59.707Y58.060
X59.730Y58.037
X59.836Y57.964
X59.982Y57.867
X60.065Y57.825
X60.171Y57.772
G2X60.581Y57.502I-0.656J-1.445
G1X60.705Y57.452
X60.946Y57.379
X61.244Y57.263
X61.371Y57.219
X61.440Y57.199
X61.605Y57.160
X61.847Y57.114
X62.237Y57.039
G2X62.722Y56.868I-0.278J-1.563
G1X62.828Y56.815
X62.996Y56.727
X63.234Y56.745
X63.500
Y88.842
X63.496Y88.896
X63.442Y88.900
X0.058
X0.004Y88.896
X0.000Y88.842
Y0.111
G0Z5.080
G0X35.091Y37.230
G1Z-9.000F300.0
G1X35.145Y37.283F1000.0
G2X35.637Y37.633I1.149J-1.096
G2X36.400Y37.828I0.763J-1.392
G1X36.825
G2X37.406Y37.718I0.000J-1.588
G1X37.747Y37.579
G2X38.239Y37.230I-0.656J-1.445
G1X38.292Y37.176
X38.345Y37.123
G2X38.780Y36.396I-1.096J-1.149
G2X38.890Y35.815I-1.477J-0.581
G1Y35.762
G2X38.813Y35.272I-1.588J0.000
G2X38.642Y34.787I-1.563J0.278
G2X38.292Y34.294I-1.445J0.656
G2X37.800Y33.944I-1.149J1.096
G2X37.037Y33.749I-0.763J1.392
G1X36.825
G2X36.105Y33.922I0.000J1.587
G1X35.796Y34.051
X35.690Y34.104
G2X35.198Y34.454I0.656J1.445
G1X35.145Y34.507
G2X34.795Y34.999I1.096J1.149
G2X34.600Y35.762I1.392J0.763
G1Y36.081
G2X35.091Y37.230I1.588J0.000
G0Z5.080
G0X37.589Y42.596
G1Z-9.000F300.0
G1X37.642Y42.650F1000.0
X37.695Y42.703
X37.748Y42.756
G2X38.182Y43.078I1.149J-1.096
G1X38.560Y43.318
X38.740Y43.403
G2X39.024Y43.766I1.379J-0.786
G1X39.077Y43.819
G2X40.226Y44.311I1.149J-1.096
G1X40.597
G2X41.360Y44.115I0.000J-1.588
G1X41.667Y43.932
X41.816Y43.882
X42.157Y43.743
X42.263Y43.690
G2X42.756Y43.340I-0.656J-1.445
G1X42.809Y43.287
X42.862Y43.234
X42.915Y43.181
G2X43.265Y42.689I-1.096J-1.149
G2X43.460Y41.926I-1.392J-0.763
G1Y41.554
G2X43.265Y40.791I-1.588J0.000
G1X43.212Y40.685
G2X42.862Y40.193I-1.445J0.656
G1X42.809Y40.139
G2X42.317Y39.790I-1.149J1.096
G1X42.210Y39.737
G2X41.448Y39.541I-0.763J1.392
G1X41.353
G2X40.610Y39.194I-1.021J1.216
G2X40.119Y39.116I-0.490J1.510
G1X39.535
G2X38.772Y39.311I0.000J1.588
G1X38.666Y39.365
X38.664Y39.366
G2X38.241Y39.524I0.340J1.551
G2X37.748Y39.874I0.656J1.445
G1X37.695Y39.927
X37.642Y39.980
X37.589Y40.033
G2X37.097Y41.182I1.096J1.149
G1Y41.448
G2X37.589Y42.596I1.588J0.000
G0Z5.080
G0X34.971Y0.054
G1Z-10.000F300.0
G1X0.040F1000.0
X0.004Y0.057
X0.000Y0.111
Y2.277
X37.264
X37.256Y2.391
Y2.763
X37.269Y2.961
X37.306Y3.157
X37.368Y3.347
X37.452Y3.526
X37.505Y3.632
X37.558Y3.738
X37.673Y3.948
X37.818Y4.137
X37.897Y4.253
X38.023Y4.438
X38.079Y4.499
X0.000
Y6.722
X39.025
X39.067Y6.851
X39.132Y7.041
X39.221Y7.221
X39.332Y7.388
X39.458Y7.573
X39.608Y7.738
X39.661Y7.791
X39.714Y7.844
X39.768Y7.897
X39.821Y7.950
X39.967Y8.086
X40.130Y8.202
X40.076Y8.287
X39.965Y8.454
X39.876Y8.635
X39.811Y8.824
X39.772Y8.944
X0.000
Y11.167
X39.735
X39.790Y11.284
X39.885Y11.462
X40.002Y11.628
X40.139Y11.776
X40.193Y11.830
X40.246Y11.883
X40.376Y12.005
X40.520Y12.112
X40.577Y12.345
X40.670Y12.568
X40.640Y12.684
X40.332Y12.654
X39.960
X39.732Y12.670
X39.506Y12.720
X39.288Y12.803
X39.085Y12.916
X38.904Y13.055
X38.718Y13.192
X38.552Y13.355
X38.527Y13.389
X0.000
Y15.612
X37.554
X37.521Y15.628
X37.354Y15.739
X37.185Y15.852
X37.031Y15.988
X36.895Y16.142
X36.782Y16.311
X36.669Y16.481
X36.578Y16.667
X36.512Y16.864
X36.472Y17.066
X36.459Y17.270
Y17.386
X36.283Y17.445
X36.115Y17.525
X35.937Y17.620
X35.771Y17.738
X35.666Y17.834
X0.000
Y20.057
X35.128
X35.152Y20.125
X35.250Y20.316
X35.372Y20.493
X35.516Y20.650
X35.570Y20.704
X35.623Y20.757
X35.771Y20.894
X35.937Y21.011
X36.115Y21.107
X36.222Y21.160
X36.388Y21.239
X36.562Y21.298
X36.751Y21.359
X36.946Y21.396
X37.144Y21.408
X37.197
X37.409Y21.394
X37.622Y21.408
X38.206
X38.243Y21.408
X38.358Y21.568
X38.492Y21.713
X38.545Y21.766
X38.694Y21.903
X38.859Y22.021
X39.038Y22.116
X39.144Y22.169
X39.311Y22.248
X39.402Y22.279
X0.000
Y24.502
X36.165
X36.153Y24.565
X36.141Y24.762
Y25.134
X36.153Y25.332
X36.190Y25.528
X36.252Y25.718
X36.336Y25.897
X36.389Y26.003
X36.484Y26.181
X36.600Y26.345
X36.708Y26.588
X36.761Y26.694
X36.776Y26.724
X0.000
Y28.947
X40.922
X41.064Y28.982
X41.276Y29.035
X41.332Y29.052
X41.482Y29.130
X41.637Y29.205
X41.800Y29.262
X41.967Y29.301
X42.191Y29.356
X42.420Y29.378
X42.623Y29.418
X42.829Y29.432
X43.097
X43.395Y29.609
X43.703Y29.737
X43.919Y29.828
X44.146Y29.886
X44.459Y29.953
X44.678Y30.001
X44.902Y30.016
X45.221
X45.444Y30.001
X45.664Y29.953
X45.905Y29.907
X46.214Y29.857
X46.336Y29.849
X46.459Y29.857
X46.662Y29.897
X46.868Y29.910
X47.576
X47.778Y29.950
X47.984Y29.963
X49.206
X49.412Y29.950
X49.615Y29.910
X49.844Y29.888
X50.068Y29.832
X50.371Y29.747
X50.546Y29.688
X50.712Y29.609
X50.819Y29.556
X50.925Y29.502
X51.103Y29.407
X51.269Y29.290
X51.417Y29.153
X51.471Y29.099
X51.524Y29.046
X51.577Y28.993
X51.623Y28.947
X58.470
G0Z5.080
G0X55.587Y31.169
G1Z-10.000F300.0
G1X34.700F1000.0
X34.682Y31.165
X34.433Y31.146
X33.796
X33.769Y31.146
X33.743Y31.146
X33.424
X33.226Y31.158
X33.166Y31.169
X0.000
Y33.392
X31.252
Y33.743
X31.264Y33.940
X31.301Y34.136
X31.363Y34.326
X31.447Y34.505
X31.542Y34.684
X31.660Y34.849
X31.797Y34.998
X31.850Y35.051
X31.903Y35.104
X31.956Y35.157
X32.105Y35.294
X32.270Y35.412
X32.449Y35.507
X32.635Y35.594
X32.700Y35.614
X0.000
Y37.837
X33.945
X34.071Y38.049
X34.177Y38.208
X34.303Y38.354
X34.445Y38.484
X34.600Y38.595
X34.856Y38.781
X35.159Y38.961
X35.338Y39.045
X35.528Y39.107
X35.724Y39.144
X35.921Y39.156
X36.346
X36.544Y39.144
X36.739Y39.107
X36.927Y39.046
X37.015Y39.019
X36.898Y39.130
X36.845Y39.183
X36.792Y39.236
X36.769Y39.259
X36.663Y39.332
X36.479Y39.458
X36.314Y39.608
X36.176Y39.757
X36.059Y39.922
X35.986Y40.059
X0.000
Y42.282
X35.974
X36.078Y42.473
X36.223Y42.663
X36.339Y42.823
X36.473Y42.968
X36.526Y43.022
X36.579Y43.075
X36.720Y43.205
X36.875Y43.318
X37.057Y43.474
X37.044Y43.679
Y43.945
X37.056Y44.143
X37.093Y44.338
X37.147Y44.504
X0.000
Y46.727
X38.325
X38.345Y46.741
X38.538Y46.839
X38.742Y46.911
X38.953Y46.953
X39.163Y46.967
X39.428
X39.639Y46.953
X39.849Y46.911
X40.053Y46.839
X40.246Y46.741
X40.266Y46.727
X44.780
X44.935Y46.672
X45.102Y46.633
X45.344Y46.575
X45.592Y46.556
X45.752
X46.000Y46.575
X46.242Y46.633
X46.410Y46.672
X46.564Y46.727
G0Z5.080
G0X42.148Y48.949
G1Z-10.000F300.0
G1X0.000F1000.0
Y51.172
X43.134
X43.184Y51.206
X43.375Y51.304
X43.577Y51.374
X43.765Y51.435
X43.960Y51.472
X44.158Y51.484
X44.211
X44.441Y51.467
X44.487Y51.491
X44.651Y51.597
X44.827Y51.683
X45.011Y51.746
X45.315Y51.832
X45.351Y51.843
X45.580Y51.938
X45.823Y51.996
X46.071Y52.016
X46.602
X46.620Y52.015
X46.835Y52.268
X46.888Y52.321
X46.941Y52.374
X47.090Y52.511
X47.255Y52.629
X47.434Y52.724
X47.540Y52.777
X47.646Y52.830
X47.813Y52.909
X47.987Y52.968
X48.176Y53.029
X48.371Y53.066
X48.568Y53.078
X48.640
X48.684Y53.140
X48.810Y53.325
X48.874Y53.394
X0.000
Y55.617
X52.575
X52.627Y55.668
X52.680Y55.722
X52.821Y55.852
X52.976Y55.965
X53.150Y56.114
X53.088Y56.304
X53.051Y56.500
X53.038Y56.698
Y56.911
X53.051Y57.108
X53.088Y57.304
X53.149Y57.492
X53.208Y57.666
X53.287Y57.833
X53.290Y57.839
X0.000
Y60.062
X55.893
X56.049Y60.136
X56.224Y60.195
X56.412Y60.256
X56.607Y60.293
X56.805Y60.305
X57.017
X57.265Y60.286
X57.508Y60.227
X57.675Y60.188
X57.837Y60.131
X57.982Y60.062
G0Z5.080
G0X60.771Y57.839
G1Z-10.000F300.0
G1X63.500F1000.0
Y60.062
X57.982
G0Z5.080
G0X60.941Y62.284
G1Z-10.000F300.0
G1X0.000F1000.0
Y64.507
X61.313
X61.395Y64.596
X61.448Y64.649
X61.501Y64.702
X61.554Y64.755
X61.607Y64.808
X61.756Y64.945
X61.921Y65.063
X62.100Y65.158
X62.266Y65.237
X62.441Y65.296
X62.629Y65.357
X62.824Y65.394
X63.022Y65.406
X63.234
X63.500Y65.384
Y66.729
X0.000
Y68.952
X63.500
Y71.174
X0.000
Y73.397
X63.500
Y75.091
X63.341
X63.143Y75.103
X62.947Y75.140
X62.757Y75.202
X62.578Y75.286
X62.400Y75.381
X62.234Y75.499
X62.103Y75.619
X0.000
Y77.842
X61.615
X61.668Y77.992
X61.766Y78.184
X61.888Y78.361
X62.032Y78.518
X62.086Y78.571
X62.234Y78.708
X62.400Y78.826
X62.578Y78.921
X62.757Y79.005
X62.947Y79.066
X63.143Y79.104
X63.341Y79.116
X63.500
Y80.064
X0.000
Y82.287
X63.500
Y84.509
X0.000
Y86.732
X63.500
Y88.842
X63.496Y88.896
X63.460Y88.899
X0.040
G0Z5.080
G0X38.183Y33.392
G1Z-10.000F300.0
G1X56.074F1000.0
X56.134Y33.457
X56.187Y33.510
X56.240Y33.563
X56.293Y33.616
X56.459Y33.766
X56.643Y33.892
X56.945Y34.072
X57.052Y34.125
X57.218Y34.204
X57.393Y34.264
X57.552Y34.317
X57.751Y34.380
X57.956Y34.417
X58.299Y34.477
X58.408Y34.503
X58.405Y34.593
Y35.124
X58.418Y35.322
X58.455Y35.518
X58.486Y35.614
X56.327
X56.472Y35.662
X56.486
X56.691Y35.676
X56.893Y35.715
X57.017
X57.265Y35.735
X57.508Y35.793
X57.811Y35.879
X57.985Y35.938
X58.152Y36.017
X58.258Y36.070
X58.436Y36.165
X58.602Y36.283
X58.750Y36.420
X58.804Y36.473
X58.857Y36.526
X58.910Y36.579
X58.963Y36.632
X59.016Y36.686
X59.160Y36.843
X59.283Y37.020
X59.381Y37.211
X59.451Y37.413
X59.514Y37.611
X59.551Y37.817
X59.629Y37.837
X60.727
X60.847Y37.877
X61.150Y37.963
X61.463Y38.030
X61.682Y38.078
X61.906Y38.093
X62.384
X62.589Y38.080
X62.791Y38.040
X63.287
X63.500Y38.026
Y40.059
X62.531
G0Z5.080
G0X45.180Y35.614
G1Z-10.000F300.0
G1X39.528F1000.0
Y35.815
X39.516Y36.013
X39.479Y36.208
X39.418Y36.396
X39.365Y36.555
X39.302Y36.740
X39.216Y36.916
X39.109Y37.080
X39.016Y37.249
X38.902Y37.407
X38.771Y37.548
X38.717Y37.602
X38.664Y37.655
X38.611Y37.708
X38.558Y37.761
X38.535Y37.784
X38.495Y37.837
X45.237
X45.239Y37.872
X45.276Y38.068
X45.337Y38.256
X45.396Y38.430
X45.475Y38.597
X45.529Y38.703
X45.582Y38.809
X45.762Y39.112
X45.948Y39.368
X46.063Y39.529
X46.197Y39.674
X46.250Y39.727
X46.304Y39.780
X46.357Y39.833
X46.502Y39.968
X46.630Y40.059
X43.460
X43.575Y40.210
X43.690Y40.419
X43.743Y40.526
X43.797Y40.632
X43.883Y40.818
X43.946Y41.015
X43.982Y41.217
X44.029Y41.436
X44.045Y41.660
Y41.820
X44.025Y42.068
X43.974Y42.282
X47.956
X47.994Y42.401
X48.053Y42.575
X48.132Y42.742
X48.235Y42.932
X48.362Y43.106
Y43.467
X48.375Y43.664
X48.412Y43.860
X48.472Y44.048
X48.532Y44.222
X48.611Y44.389
X48.664Y44.495
X48.669Y44.504
X45.958
G0Z5.080
G0X46.564Y46.727
G1Z-10.000F300.0
G1X49.531F1000.0
G0Z5.080
G0X51.959Y13.389
G1Z-10.000F300.0
G1X51.939F1000.0
G0Z5.080
G0X53.538Y0.054
G1Z-10.000F300.0
G1X46.361F1000.0
X46.525Y0.126
X46.652Y0.170
X46.811Y0.223
X46.971Y0.276
X47.172Y0.347
X47.364Y0.444
X47.541Y0.567
X47.698Y0.711
X47.751Y0.764
X47.804Y0.817
X47.857Y0.870
X47.910Y0.924
X48.047Y1.072
X48.165Y1.238
X48.260Y1.416
X48.344Y1.595
X48.406Y1.785
X48.443Y1.981
X48.455Y2.179
Y2.277
X51.083
X51.072Y2.444
Y2.710
X51.085Y2.908
X51.122Y3.104
X51.183Y3.293
X51.267Y3.473
X51.321Y3.579
X51.416Y3.757
X51.533Y3.923
X51.670Y4.071
X51.724Y4.125
X51.777Y4.178
X51.830Y4.231
X51.883Y4.284
X52.048Y4.434
X52.144Y4.499
X48.136
X48.133Y4.513
X48.073Y4.688
X47.994Y4.854
X47.891Y5.045
X48.109Y5.144
X48.215Y5.197
X48.517Y5.377
X48.702Y5.503
X48.867Y5.653
X48.920Y5.706
X49.070Y5.871
X49.196Y6.056
X49.301Y6.213
X49.387Y6.382
X49.452Y6.560
X49.519Y6.722
X50.874
X50.864Y6.752
X50.803Y6.940
X50.766Y7.136
X50.753Y7.333
Y7.599
X50.773Y7.847
X50.831Y8.089
X50.870Y8.256
X50.928Y8.419
X51.002Y8.574
X51.055Y8.680
X51.086Y8.744
X51.161Y8.944
X49.782
X49.812Y9.074
X49.866Y9.287
X49.933Y9.600
X49.980Y9.819
X49.996Y10.043
Y10.114
X50.036Y10.316
X50.049Y10.521
Y11.000
X50.032Y11.167
X51.019
G0Z5.080
G0X42.751Y0.054
G1Z-10.000F300.0
G1X39.528F1000.0
G0Z5.080
G0X31.447Y32.396
G1Z-10.000F300.0
G2X31.252Y33.158I1.392J0.763F1000.0
G1Y33.743
G2X31.447Y34.505I1.588J0.000
G2X31.797Y34.998I1.445J-0.656
G1X31.850Y35.051
X31.903Y35.104
X31.956Y35.157
G2X32.449Y35.507I1.149J-1.096
G2X33.034Y35.692I0.763J-1.392
G1X33.477Y35.755
X33.550
X33.590Y35.957
Y36.346
X33.643Y36.754
Y36.825
G2X33.753Y37.406I1.588J0.000
G1X33.891Y37.747
X34.071Y38.049
G2X34.600Y38.595I1.372J-0.799
G1X34.856Y38.781
X35.159Y38.961
G2X35.921Y39.156I0.763J-1.392
G1X36.346
G2X36.927Y39.046I0.000J-1.588
G1X37.015Y39.019
X36.898Y39.130
X36.845Y39.183
X36.792Y39.236
X36.769Y39.259
X36.663Y39.332
X36.314Y39.608
G2X35.964Y40.101I1.096J1.149
G1X35.911Y40.207
G2X35.715Y40.969I1.392J0.763
G1Y41.288
G2X35.793Y41.779I1.588J0.000
G2X35.964Y42.263I1.563J-0.278
G2X36.223Y42.663I1.445J-0.656
G1X36.473Y42.968
X36.526Y43.022
X36.579Y43.075
X36.875Y43.318
X37.057Y43.474
X37.044Y43.679
Y43.945
G2X37.154Y44.526I1.588J0.000
G2X37.469Y45.126I1.530J-0.422
G1Y45.274
G2X37.961Y46.422I1.588J0.000
G1X38.014Y46.476
G2X39.163Y46.967I1.149J-1.096
G1X39.428
G2X40.577Y46.476I0.000J-1.588
G1X40.630Y46.422
X40.787Y46.249
G2X41.254Y46.081I-0.296J-1.560
G2X41.746Y45.732I-0.656J-1.445
G1X41.799Y45.678
G2X42.130Y45.227I-1.096J-1.149
G1X42.136Y45.235
G2X42.531Y45.838I1.491J-0.546
G1X42.584Y45.891
G2X43.076Y46.241I1.149J-1.096
G2X43.839Y46.436I0.763J-1.392
G1X44.105
G2X44.867Y46.241I0.000J-1.588
G2X45.360Y45.891I-0.656J-1.445
G1X45.413Y45.838
X45.466Y45.785
G2X45.958Y44.636I-1.096J-1.149
G1Y44.370
G2X45.466Y43.222I-1.587J0.000
G1X45.413Y43.168
X45.360Y43.115
X45.307Y43.062
G2X44.612Y42.637I-1.149J1.096
G2X43.932Y42.464I-0.720J1.415
G1X43.967Y42.310
G2X44.045Y41.820I-1.510J-0.490
G1Y41.660
X43.982Y41.217
G2X43.797Y40.632I-1.578J0.177
G1X43.743Y40.526
X43.690Y40.419
G2X43.431Y40.020I-1.445J0.656
G1X43.181Y39.714
X43.158Y39.691
X42.915Y39.396
X42.862Y39.342
X42.809Y39.289
X42.756Y39.236
X42.703Y39.183
G2X42.210Y38.833I-1.149J1.096
G1X42.104Y38.780
X41.998Y38.727
X41.657Y38.589
G2X41.076Y38.479I-0.581J1.477
G1X40.952
X40.544Y38.425
X40.531
X40.381Y38.376
G2X39.800Y38.266I-0.581J1.477
G1X39.641
G2X39.067Y38.374I0.000J1.588
G1X39.003Y38.372
X38.738
G2X38.157Y38.482I0.000J1.588
G1X37.997Y38.536
X37.838Y38.589
X37.818Y38.594
X37.973Y38.452
X38.027Y38.399
X38.080Y38.345
X38.133Y38.292
X38.382Y37.986
X38.535Y37.784
X38.558Y37.761
X38.611Y37.708
X38.664Y37.655
X38.717Y37.602
X38.771Y37.548
G2X39.109Y37.080I-1.096J-1.149
G2X39.365Y36.555I-1.275J-0.946
G1X39.418Y36.396
G2X39.528Y35.815I-1.477J-0.581
G1Y35.390
G2X39.418Y34.809I-1.587J0.000
G1X39.280Y34.468
G2X38.930Y33.975I-1.445J0.656
G1X38.877Y33.922
X38.824Y33.869
X38.771Y33.816
X38.717Y33.763
G2X38.225Y33.413I-1.149J1.096
G1X38.119Y33.360
X37.778Y33.222
X37.618Y33.169
X37.459Y33.116
G2X36.878Y33.005I-0.581J1.477
G1X36.860
X36.492Y32.953
G2X36.304Y32.342I-1.580J0.152
G2X35.954Y31.850I-1.445J0.656
G1X35.901Y31.797
X35.848Y31.744
X35.795Y31.691
G2X34.924Y31.223I-1.149J1.096
G2X34.433Y31.146I-0.490J1.510
G1X33.796
X33.769Y31.146
X33.743Y31.146
X33.424
G2X32.843Y31.256I0.000J1.587
G1X32.502Y31.394
X32.396Y31.447
G2X31.903Y31.797I0.656J1.445
G1X31.850Y31.850
X31.797Y31.903
G2X31.447Y32.396I1.096J1.149
G0Z5.080
G0X51.914Y13.346
G1Z-10.000F300.0
G1X51.939Y13.368F1000.0
X52.042Y13.477
X52.096Y13.530
X52.149Y13.583
X52.202Y13.636
X52.255Y13.689
X52.308Y13.743
X52.361Y13.796
X52.414Y13.849
X52.764Y14.125
X52.848Y14.184
X52.809Y14.331
X52.500Y14.301
X52.405
X52.299Y14.063
X52.245Y13.957
X52.192Y13.850
X52.139Y13.744
X52.086Y13.638
X51.914Y13.346
G0Z5.080
G0X46.359Y0.053
G1Z-10.000F300.0
G1X53.541F1000.0
X53.514Y0.064
X53.354Y0.117
X53.195Y0.170
X53.035Y0.223
X52.876Y0.276
X52.535Y0.414
X52.233Y0.594
X51.883Y0.870
X51.830Y0.924
X51.777Y0.977
X51.724Y1.030
X51.670Y1.083
G2X51.321Y1.575I1.096J1.149
G1X51.267Y1.682
G2X51.072Y2.444I1.392J0.763
G1Y2.710
G2X51.267Y3.473I1.587J0.000
G1X51.321Y3.579
G2X51.670Y4.071I1.445J-0.656
G1X51.724Y4.125
X51.777Y4.178
X51.830Y4.231
X51.883Y4.284
X52.233Y4.560
X52.535Y4.740
X52.550Y4.748
X52.543Y4.764
X52.490Y4.870
X52.356Y5.194
X52.110Y5.303
X52.004Y5.356
G2X51.511Y5.706I0.656J1.445
G1X51.458Y5.759
X51.405Y5.812
G2X51.055Y6.305I1.096J1.149
G1X51.002Y6.411
X50.864Y6.752
G2X50.753Y7.333I1.477J0.581
G1Y7.599
G2X50.831Y8.089I1.588J0.000
G2X51.002Y8.574I1.563J-0.278
G1X51.055Y8.680
X51.086Y8.744
X51.162Y8.948
X51.203Y9.099
X51.233Y9.233
X51.232Y9.262
X51.182Y9.571
X51.126Y9.953
X51.073Y10.325
X51.019Y10.734
Y11.478
G2X51.097Y11.968I1.587J0.000
G2X51.267Y12.453I1.563J-0.278
G1X51.321Y12.559
X51.485Y12.841
X51.471Y12.827
X51.417Y12.773
X51.364Y12.720
X51.342Y12.697
X51.099Y12.401
X51.045Y12.348
X50.992Y12.295
X50.939Y12.242
X50.886Y12.189
X50.833Y12.136
X50.752Y12.057
X50.673Y11.976
X50.620Y11.923
X50.567Y11.870
X50.514Y11.817
X50.461Y11.764
X50.408Y11.711
X50.355Y11.657
X50.302Y11.604
X50.248Y11.551
X50.195Y11.498
X50.142Y11.445
X50.089Y11.392
X50.036Y11.339
X50.017Y11.319
X50.049Y11.000
Y10.521
X49.996Y10.114
Y10.043
X49.933Y9.600
X49.866Y9.287
X49.812Y9.074
X49.774Y8.909
X49.731Y8.679
Y8.608
X49.668Y8.165
X49.624Y7.935
Y7.280
G2X49.452Y6.560I-1.588J0.000
G2X49.196Y6.056I-1.521J0.454
G1X48.920Y5.706
X48.867Y5.653
X48.517Y5.377
X48.215Y5.197
X48.109Y5.144
X47.891Y5.045
X47.994Y4.854
X48.133Y4.513
X48.218Y4.210
G2X48.295Y3.757I-1.510J-0.490
G1X48.349Y3.348
Y3.175
G2X48.455Y2.604I-1.481J-0.571
G1Y2.179
G2X48.260Y1.416I-1.588J0.000
G2X47.910Y0.924I-1.445J0.656
G1X47.857Y0.870
X47.804Y0.817
X47.751Y0.764
X47.698Y0.711
G2X46.971Y0.276I-1.149J1.096
G1X46.811Y0.223
X46.652Y0.170
X46.525Y0.126
X46.359Y0.053
G0Z5.080
G0X39.528
G1Z-10.000F300.0
G1X42.754F1000.0
X42.727Y0.064
X42.567Y0.117
X42.408Y0.170
X42.171Y0.256
X42.165Y0.257
X41.820Y0.219
X41.589
X41.182Y0.166
X41.111
X40.704Y0.113
X40.580
X40.172Y0.060
X40.119
X39.676Y0.123
X39.528Y0.147
Y0.053
G0Z5.080
G0X34.971
G1Z-10.000F300.0
G1Y0.159F1000.0
G2X35.167Y0.922I1.587J0.000
G1X35.220Y1.028
G2X36.009Y1.817I1.445J-0.656
G1X36.115Y1.871
X36.456Y2.009
X36.759Y2.094
G2X37.250Y2.172I0.490J-1.510
G1X37.272
X37.256Y2.391
Y2.763
G2X37.452Y3.526I1.588J0.000
G1X37.505Y3.632
X37.558Y3.738
G2X37.818Y4.137I1.445J-0.656
G1X37.897Y4.253
X38.173Y4.603
X38.227Y4.656
X38.576Y4.932
G2X39.074Y5.186I0.959J-1.265
G1X39.067Y5.211
G2X38.957Y5.792I1.477J0.581
G1Y6.270
G2X39.067Y6.851I1.588J0.000
G2X39.332Y7.388I1.530J-0.422
G1X39.608Y7.738
X39.661Y7.791
X39.714Y7.844
X39.768Y7.897
X39.821Y7.950
X40.130Y8.202
X40.076Y8.287
G2X39.811Y8.824I1.265J0.959
G2X39.701Y9.405I1.477J0.581
G1Y9.685
G2X39.595Y10.256I1.481J0.571
G1Y10.521
G2X39.790Y11.284I1.588J0.000
G2X40.139Y11.776I1.445J-0.656
G1X40.193Y11.830
X40.246Y11.883
X40.520Y12.112
G2X40.670Y12.568I1.566J-0.262
G1X40.640Y12.684
X40.332Y12.654
X39.960
G2X38.904Y13.055I0.000J1.588
G2X38.302Y13.744I0.843J1.345
G2X38.107Y14.507I1.392J0.763
G1Y14.879
G2X38.186Y15.374I1.588J0.000
G1X38.050Y15.421
X37.891Y15.474
G2X37.354Y15.739I0.422J1.530
G2X36.782Y16.311I0.799J1.372
G2X36.459Y17.270I1.265J0.959
G1Y17.386
X36.115Y17.525
G2X35.623Y17.875I0.656J1.445
G1X35.570Y17.928
X35.516Y17.981
G2X35.082Y18.708I1.096J1.149
G2X34.971Y19.289I1.477J0.581
G1Y19.342
G2X35.082Y19.923I1.587J0.000
G2X35.516Y20.650I1.530J-0.422
G1X35.570Y20.704
X35.623Y20.757
G2X36.115Y21.107I1.149J-1.096
G1X36.222Y21.160
X36.562Y21.298
G2X37.144Y21.408I0.581J-1.477
G1X37.197
X37.409Y21.394
X37.622Y21.408
X38.206
X38.243Y21.408
X38.492Y21.713
X38.545Y21.766
G2X39.038Y22.116I1.149J-1.096
G1X39.144Y22.169
X39.485Y22.307
X39.641Y22.360
X39.683Y22.443
X39.864Y22.745
X40.026Y22.975
X39.963Y22.984
X39.665Y22.920
X39.372Y22.807
X39.212Y22.754
G2X38.631Y22.643I-0.581J1.477
G1X38.259
G2X37.497Y22.839I0.000J1.588
G1X37.391Y22.892
X37.088Y23.072
G2X36.516Y23.644I0.799J1.372
G2X36.251Y24.181I1.265J0.959
G2X36.141Y24.762I1.477J0.581
G1Y25.134
G2X36.336Y25.897I1.588J0.000
G1X36.389Y26.003
X36.600Y26.345
X36.708Y26.588
X36.761Y26.694
X36.814Y26.800
G2X37.164Y27.293I1.445J-0.656
G1X37.217Y27.346
X37.270Y27.399
X37.323Y27.452
X37.376Y27.505
X37.429Y27.558
X37.735Y27.808
G2X38.134Y28.068I1.055J-1.186
G1X38.241Y28.121
X38.323Y28.163
X38.613Y28.333
X38.719Y28.386
X38.825Y28.440
X38.932Y28.493
X39.038Y28.546
X39.144Y28.599
G2X39.629Y28.770I0.763J-1.392
G2X40.119Y28.847I0.490J-1.510
G1X40.558
X40.851Y28.929
X41.064Y28.982
X41.276Y29.035
X41.332Y29.052
X41.482Y29.130
G2X41.967Y29.301I0.763J-1.392
G2X42.420Y29.378I0.490J-1.510
G1X42.829Y29.432
X43.097
X43.395Y29.609
X43.703Y29.737
G2X44.146Y29.886I0.720J-1.415
G1X44.459Y29.953
X44.902Y30.016
X45.221
X45.664Y29.953
X45.905Y29.907
X46.214Y29.857
X46.336Y29.849
X46.459Y29.857
X46.868Y29.910
X47.576
X47.984Y29.963
X49.206
X49.615Y29.910
G2X50.068Y29.832I-0.037J-1.587
G1X50.371Y29.747
X50.712Y29.609
X50.819Y29.556
X50.925Y29.502
G2X51.417Y29.153I-0.656J-1.445
G1X51.471Y29.099
X51.524Y29.046
X51.577Y28.993
X51.630Y28.940
X51.683Y28.887
X51.959Y28.537
X52.065Y28.378
X52.245Y28.076
X52.362Y27.807
X52.493Y27.702
X52.799Y27.452
X52.852Y27.399
X52.905Y27.346
X52.928Y27.323
X53.204Y27.101
X53.460Y27.196
X53.620Y27.249
G2X54.201Y27.359I0.581J-1.477
G1X55.104
X55.511Y27.306
X55.846
X56.261Y27.441
G2X56.715Y27.518I0.490J-1.510
G1X56.806Y27.540
X56.825Y27.558
X56.878Y27.612
X56.931Y27.665
X56.984Y27.718
X57.037Y27.771
X57.091Y27.824
X57.144Y27.877
G2X57.636Y28.227I1.149J-1.096
G2X58.121Y28.398I0.763J-1.392
G2X58.611Y28.475I0.490J-1.510
G1X58.930
X59.251Y28.443
X59.443Y28.546
X59.487Y28.569
X59.290Y28.619
X58.987Y28.705
X58.646Y28.843
X58.356Y29.014
X58.078Y29.183
X57.843Y29.349
X57.693Y29.436
X57.658Y29.449
X57.499Y29.502
X57.339Y29.555
X56.998Y29.693
X56.892Y29.747
X56.786Y29.800
G2X56.293Y30.150I0.656J1.445
G1X56.240Y30.203
X56.187Y30.256
X56.134Y30.309
X56.081Y30.362
X56.028Y30.415
G2X55.536Y31.564I1.096J1.149
G1Y32.095
G2X55.731Y32.858I1.587J0.000
G1X55.784Y32.964
G2X56.134Y33.457I1.445J-0.656
G1X56.187Y33.510
X56.240Y33.563
X56.293Y33.616
X56.643Y33.892
X56.945Y34.072
X57.052Y34.125
X57.393Y34.264
X57.552Y34.317
X57.956Y34.417
X58.299Y34.477
X58.408Y34.503
X58.405Y34.593
Y35.124
G2X58.601Y35.887I1.588J0.000
G1X58.654Y35.993
X58.834Y36.296
X59.110Y36.645
X59.163Y36.698
X59.216Y36.751
X59.269Y36.804
X59.322Y36.858
X59.375Y36.911
X59.429Y36.964
X59.482Y37.017
X59.535Y37.070
X59.588Y37.123
X59.641Y37.176
X59.991Y37.452
X60.150Y37.559
G2X60.687Y37.824I0.959J-1.265
G1X60.847Y37.877
X61.150Y37.963
X61.463Y38.030
X61.906Y38.093
X62.384
X62.791Y38.040
X63.287
X63.500Y38.026
Y41.559
X63.466Y41.543
X63.125Y41.405
X62.962Y41.351
Y41.288
G2X62.852Y40.707I-1.587J0.000
G1X62.714Y40.366
X62.534Y40.064
X62.529Y40.057
X62.395Y39.729
X62.215Y39.426
X61.939Y39.077
X61.886Y39.024
X61.832Y38.970
X61.779Y38.917
G2X61.287Y38.567I-1.149J1.096
G1X61.181Y38.514
X61.074Y38.461
X60.968Y38.408
X60.862Y38.355
X60.755Y38.302
X60.649Y38.249
X60.543Y38.196
X60.437Y38.142
X60.330Y38.089
X60.224Y38.036
G2X59.739Y37.865I-0.763J1.392
G1X59.551Y37.817
X59.451Y37.413
G2X59.016Y36.686I-1.530J0.422
G1X58.963Y36.632
X58.910Y36.579
X58.857Y36.526
X58.804Y36.473
X58.750Y36.420
G2X58.258Y36.070I-1.149J1.096
G1X58.152Y36.017
X57.811Y35.879
X57.508Y35.793
G2X57.017Y35.715I-0.490J1.510
G1X56.893
X56.486Y35.662
X56.472
X56.323Y35.613
X56.163Y35.560
G2X55.582Y35.450I-0.581J1.477
G1X55.532
X55.260Y35.347
X55.101Y35.294
X54.941Y35.241
X54.815Y35.197
X54.751Y35.167
X54.645Y35.114
X54.538Y35.060
X54.197Y34.922
X54.071Y34.878
X54.007Y34.848
X53.666Y34.710
X53.544Y34.667
X53.543Y34.666
G2X53.050Y34.316I-1.149J1.096
G1X52.944Y34.263
G2X52.182Y34.068I-0.763J1.392
G1X51.438
X50.995Y34.131
X50.591Y34.231
X50.229Y34.381
X49.844Y34.334
X49.418
G2X48.928Y34.411I0.000J1.588
G1X48.590Y34.511
X48.465Y34.423
X48.442Y34.401
G2X47.293Y33.909I-1.149J1.096
G1X47.027
G2X45.878Y34.401I0.000J1.588
G1X45.825Y34.454
X45.772Y34.507
X45.719Y34.560
G2X45.369Y35.052I1.096J1.149
G2X45.199Y35.537I1.392J0.763
G2X45.121Y36.028I1.510J0.490
G1Y36.612
G2X45.227Y37.183I1.588J0.000
G1X45.227Y37.197
Y37.675
G2X45.337Y38.256I1.587J0.000
G1X45.475Y38.597
X45.529Y38.703
X45.582Y38.809
X45.762Y39.112
X45.948Y39.368
X46.197Y39.674
X46.250Y39.727
X46.304Y39.780
X46.357Y39.833
X46.663Y40.083
X46.875Y40.242
X46.941Y40.298
X47.037Y40.440
X47.283Y40.760
X47.526Y41.055
X47.579Y41.109
X47.632Y41.162
X47.685Y41.215
X47.738Y41.268
X47.884Y41.403
Y41.820
G2X47.994Y42.401I1.588J0.000
G1X48.132Y42.742
X48.362Y43.106
Y43.467
G2X48.472Y44.048I1.587J0.000
G1X48.611Y44.389
X48.664Y44.495
X48.744Y44.648
X48.787Y44.884
Y44.902
X48.844Y45.321
G2X48.951Y45.802I1.584J-0.100
G1X49.089Y46.143
G2X49.439Y46.635I1.445J-0.656
G1X49.492Y46.688
X49.545Y46.741
G2X50.037Y47.091I1.149J-1.096
G1X50.378Y47.229
X50.642Y47.307
X50.661Y47.326
X50.714Y47.379
X50.740Y47.406
X50.694
X50.251Y47.469
X49.938Y47.537
X49.634Y47.622
X49.293Y47.760
X49.187Y47.814
X49.079Y47.868
X49.013Y47.884
X48.973Y47.845
X48.920Y47.791
X48.867Y47.738
G2X48.140Y47.303I-1.149J1.096
G2X47.559Y47.193I-0.581J1.477
G1X47.259
X47.219Y47.154
G2X46.727Y46.804I-1.149J1.096
G2X46.242Y46.633I-0.763J1.392
G2X45.752Y46.556I-0.490J1.510
G1X45.592
G2X45.102Y46.633I0.000J1.588
G2X44.617Y46.804I0.278J1.563
G2X44.125Y47.154I0.656J1.445
G1X44.072Y47.207
X44.019Y47.260
G2X43.707Y47.673I1.096J1.149
G2X42.637Y48.163I0.078J1.586
G1X42.584Y48.216
G2X42.092Y49.365I1.096J1.149
G1Y49.418
G2X42.287Y50.181I1.587J0.000
G1X42.340Y50.287
G2X42.718Y50.805I1.445J-0.656
G1X42.796Y50.886
X42.850Y50.939
G2X43.577Y51.374I1.149J-1.096
G2X44.158Y51.484I0.581J-1.477
G1X44.211
X44.441Y51.467
X44.487Y51.491
G2X45.011Y51.746I0.946J-1.275
G1X45.315Y51.832
X45.351Y51.843
G2X46.071Y52.016I0.720J-1.415
G1X46.602
X46.620Y52.015
X46.835Y52.268
X46.888Y52.321
X46.941Y52.374
G2X47.434Y52.724I1.149J-1.096
G1X47.540Y52.777
X47.646Y52.830
X47.987Y52.968
G2X48.568Y53.078I0.581J-1.477
G1X48.640
X48.684Y53.140
X48.960Y53.490
G2X49.453Y53.840I1.149J-1.096
G1X49.559Y53.893
X49.900Y54.031
X50.296Y54.130
X50.395Y54.234
X50.448Y54.287
X50.744Y54.530
X51.063Y54.775
X51.223Y54.882
X51.525Y55.062
X51.866Y55.200
X52.026Y55.253
X52.329Y55.339
X52.347Y55.344
X52.574Y55.615
X52.627Y55.668
X52.680Y55.722
X52.976Y55.965
X53.150Y56.114
G2X53.038Y56.698I1.476J0.584
G1Y56.911
G2X53.149Y57.492I1.588J0.000
G1X53.287Y57.833
G2X53.637Y58.325I1.445J-0.656
G2X54.129Y58.675I1.149J-1.096
G2X54.689Y58.857I0.763J-1.392
G1X54.742Y58.932
X54.848Y59.092
X54.955Y59.251
X55.231Y59.601
X55.284Y59.654
G2X55.776Y60.004I1.149J-1.096
G1X55.883Y60.057
X56.224Y60.195
G2X56.805Y60.305I0.581J-1.477
G1X57.017
G2X57.508Y60.227I0.000J-1.588
G2X57.992Y60.057I-0.278J-1.563
G1X58.099Y60.004
X58.205Y59.951
X58.311Y59.897
X58.613Y59.717
X58.773Y59.611
X58.839Y59.571
X59.012Y59.495
X59.321Y59.366
X59.427Y59.313
G2X59.919Y58.963I-0.656J-1.445
G1X59.973Y58.910
X60.216Y58.614
X60.238Y58.591
X60.291Y58.538
X60.567Y58.188
X60.748Y57.886
X60.798Y57.786
X60.801Y57.783
X61.105Y57.697
X61.342Y57.611
X61.493Y57.571
X61.705Y57.517
X61.918Y57.464
X62.047Y57.436
X62.278
X62.697Y57.379
G2X63.178Y57.272I-0.100J-1.584
G1X63.246Y57.252
X63.376Y57.223
X63.447
X63.500Y57.222
Y60.637
X63.394
G2X62.903Y60.715I0.000J1.587
G1X62.738Y60.753
G2X62.153Y60.939I0.177J1.578
G1X61.851Y61.119
X61.501Y61.395
X61.448Y61.448
G2X61.098Y61.940I1.096J1.149
G1X61.045Y62.047
G2X60.874Y62.531I1.392J0.763
G2X60.797Y63.022I1.510J0.490
G1Y63.181
G2X60.907Y63.762I1.587J0.000
G1X61.045Y64.103
G2X61.395Y64.596I1.445J-0.656
G1X61.448Y64.649
X61.501Y64.702
X61.554Y64.755
X61.607Y64.808
G2X62.100Y65.158I1.149J-1.096
G1X62.441Y65.296
G2X63.022Y65.406I0.581J-1.477
G1X63.234
X63.500Y65.384
Y75.091
X63.341
G2X62.578Y75.286I0.000J1.587
G2X62.086Y75.636I0.656J1.445
G1X62.032Y75.689
G2X61.683Y76.181I1.096J1.149
G2X61.487Y76.944I1.392J0.763
G1Y77.210
G2X61.598Y77.791I1.587J0.000
G2X62.032Y78.518I1.530J-0.422
G1X62.086Y78.571
G2X62.578Y78.921I1.149J-1.096
G2X63.341Y79.116I0.763J-1.392
G1X63.500
Y88.842
X63.496Y88.896
X63.442Y88.900
X0.058
X0.004Y88.896
X0.000Y88.842
Y0.111
X0.004Y0.057
X0.058Y0.053
X34.971
G0Z5.080
G0X33.059Y0.054
G1Z-11.000F300.0
G1X0.040F1000.0
X0.004Y0.057
X0.000Y0.111
Y2.277
X33.072
X33.059Y2.444
Y2.657
X33.069Y2.841
X33.102Y3.024
X33.155Y3.201
X32.984Y3.259
X32.821Y3.337
X32.642Y3.432
X32.477Y3.550
X32.328Y3.687
X32.186Y3.842
X32.063Y4.018
X31.964Y4.211
X31.893Y4.415
X31.876Y4.499
X0.000
Y6.722
X32.435
X32.531Y6.813
X32.731Y6.951
X32.779Y6.986
X32.911Y7.187
X33.072Y7.366
X33.125Y7.419
X33.153Y7.447
X33.254Y7.671
X33.349Y7.849
X33.466Y8.014
X33.604Y8.163
X33.657Y8.216
X33.854Y8.391
X34.029Y8.588
X34.082Y8.641
X34.230Y8.778
X34.396Y8.896
X34.487Y8.944
X27.473
X27.558Y9.066
X27.656Y9.259
X27.728Y9.463
X27.771Y9.673
X27.785Y9.884
Y10.043
X27.772Y10.241
X27.735Y10.437
X27.673Y10.626
X27.589Y10.806
X27.494Y10.984
X27.377Y11.150
X27.361Y11.167
G0Z5.080
G0X24.353Y8.944
G1Z-11.000F300.0
G1X0.000F1000.0
Y11.167
X24.463
X24.518Y11.241
X24.681Y11.403
X24.864Y11.540
X25.063Y11.648
X25.242Y11.732
X25.432Y11.794
X25.628Y11.831
X25.825Y11.843
X25.985
X26.182Y11.831
X26.378Y11.794
X26.568Y11.732
X26.747Y11.648
X26.926Y11.553
X27.091Y11.435
X27.240Y11.298
X27.361Y11.167
G0Z5.080
G0X38.438Y8.944
G1Z-11.000F300.0
G1X37.880F1000.0
G0Z5.080
G0X35.856Y13.389
G1Z-11.000F300.0
G1X35.907Y13.355F1000.0
X36.066Y13.272
X36.232Y13.208
X36.356Y13.017
X36.482Y12.832
X36.632Y12.667
X36.686Y12.614
X36.739Y12.561
X36.792Y12.508
X36.845Y12.455
X36.996Y12.316
X37.164Y12.197
X37.347Y12.100
X37.539Y12.029
X37.838Y11.913
X37.960Y11.871
X37.961Y11.870
X38.109Y11.733
X38.275Y11.615
X38.453Y11.520
X38.628Y11.438
X38.588Y11.374
X38.476Y11.204
X38.458Y11.167
X27.361
X38.458
X38.476Y11.204
X38.588Y11.374
X38.628Y11.438
X38.453Y11.520
X38.275Y11.615
X38.109Y11.733
X37.961Y11.870
X37.960Y11.871
X37.838Y11.913
X37.539Y12.029
X37.347Y12.100
X37.164Y12.197
X36.996Y12.316
X36.845Y12.455
X36.792Y12.508
X36.739Y12.561
X36.686Y12.614
X36.632Y12.667
X36.482Y12.832
X36.356Y13.017
X36.232Y13.208
X36.066Y13.272
X35.907Y13.355
X35.856Y13.389
X33.085
G0Z5.080
G0X35.856
G1Z-11.000F300.0
G1X33.085F1000.0
X33.039Y13.366
X32.835Y13.295
X32.624Y13.252
X32.414Y13.238
X32.149
X31.938Y13.252
X31.728Y13.295
X31.524Y13.366
X31.478Y13.389
X0.000
Y15.612
X29.423
X29.363Y15.823
X29.305Y16.065
X29.286Y16.313
Y16.473
X29.300Y16.684
X29.342Y16.892
X29.402Y17.235
X29.455Y17.500
X29.492Y17.705
X29.533Y17.834
X0.000
Y20.057
X34.170
X34.184Y20.098
X34.263Y20.264
X34.316Y20.371
X34.440Y20.593
Y20.724
X34.452Y20.921
X34.490Y21.117
X34.551Y21.307
X34.635Y21.486
X34.730Y21.665
X34.848Y21.830
X34.985Y21.979
X35.038Y22.032
X35.091Y22.085
X35.145Y22.138
X35.293Y22.275
X35.299Y22.279
X0.000
Y24.502
X34.440
Y24.975
X34.454Y25.185
X34.497Y25.395
X34.568Y25.600
X34.667Y25.792
X34.790Y25.969
X34.932Y26.124
X34.985Y26.177
X35.117Y26.300
X35.263Y26.408
X35.419Y26.499
X35.610Y26.639
X35.724Y26.724
X0.000
Y28.947
X38.802
X38.932Y29.024
X39.038Y29.077
X39.144Y29.130
X39.311Y29.209
X39.485Y29.269
X39.684Y29.332
X39.889Y29.369
X40.108Y29.416
X40.332Y29.432
X40.597
X40.860Y29.410
X40.920Y29.428
X41.079Y29.481
X41.315Y29.553
X41.560Y29.588
X41.796Y29.634
X42.012Y29.724
X42.240Y29.781
X42.474Y29.803
X42.675Y29.843
X42.880Y29.857
X42.893Y29.863
X43.183Y30.034
X43.289Y30.087
X43.444Y30.161
X43.606Y30.218
X43.774Y30.258
X44.016Y30.316
X44.264Y30.335
X44.388
X44.590Y30.375
X44.795Y30.388
X44.866
X45.068Y30.428
X45.274Y30.441
X46.230
X46.442Y30.427
X46.649Y30.385
X46.815Y30.366
X47.080Y30.388
X47.452
X47.658Y30.375
X47.860Y30.335
X48.108
X48.237Y30.364
X48.479Y30.422
X48.728Y30.441
X49.206
X49.430Y30.426
X49.649Y30.378
X49.854Y30.342
X50.053Y30.278
X50.074Y30.272
X50.279Y30.235
X50.478Y30.172
X50.652Y30.113
X50.819Y30.034
X50.925Y29.981
X51.134Y29.866
X51.324Y29.721
X51.485Y29.606
X51.630Y29.471
X51.683Y29.418
X51.736Y29.365
X51.789Y29.312
X51.843Y29.259
X51.896Y29.206
X51.949Y29.153
X52.099Y28.988
X52.127Y28.947
X53.928
X54.023Y28.896
X54.189Y28.817
X54.364Y28.758
X54.523Y28.705
X54.711Y28.644
X54.907Y28.607
X55.104Y28.595
X55.529
X55.727Y28.607
X55.922Y28.644
X56.110Y28.705
X56.270Y28.758
X56.459Y28.824
X56.640Y28.913
X56.691Y28.947
X57.237
G0Z5.080
G0X52.613Y31.169
G1Z-11.000F300.0
G1X35.979F1000.0
X35.870Y31.096
X35.568Y30.916
X35.382Y30.829
X35.185Y30.767
X34.983Y30.730
X34.764Y30.683
X34.540Y30.667
X34.274
X34.050Y30.683
X33.831Y30.730
X33.813Y30.733
X33.622Y30.635
X33.420Y30.565
X33.232Y30.504
X33.037Y30.467
X32.839Y30.455
X32.467
X32.219Y30.474
X31.977Y30.532
X31.810Y30.572
X31.647Y30.629
X31.492Y30.703
X31.190Y30.883
X31.005Y31.009
X30.840Y31.159
X30.830Y31.169
X0.000
Y33.392
X29.944
X29.937Y33.431
X29.923Y33.636
Y33.796
X29.936Y33.993
X29.973Y34.189
X30.034Y34.377
X30.087Y34.536
X30.152Y34.726
X30.241Y34.906
X30.352Y35.073
X30.477Y35.258
X30.628Y35.423
X30.773Y35.557
X30.853Y35.614
X0.000
Y37.837
X33.030
X33.062Y37.937
X33.059Y38.047
Y38.206
X33.071Y38.404
X33.108Y38.599
X33.169Y38.787
X33.239Y38.989
X33.337Y39.180
X33.459Y39.357
X33.604Y39.514
X33.657Y39.568
X33.710Y39.621
X33.763Y39.674
X33.920Y39.818
X34.097Y39.941
X34.289Y40.038
X34.349Y40.059
X0.000
Y42.282
X35.310
X35.326Y42.317
X35.379Y42.423
X35.432Y42.529
X35.603Y42.819
X35.696Y42.988
X35.810Y43.145
X35.942Y43.287
X35.995Y43.340
X35.998Y43.344
X35.981Y43.573
Y44.051
X35.993Y44.249
X36.030Y44.444
X36.050Y44.504
X0.000
Y46.727
X36.781
X36.898Y46.834
X36.984Y46.963
X37.078Y47.133
X37.192Y47.290
X37.323Y47.432
X37.376Y47.485
X37.429Y47.538
X37.483Y47.591
X37.631Y47.729
X37.797Y47.846
X37.975Y47.941
X38.081Y47.994
X38.248Y48.073
X38.422Y48.133
X38.611Y48.193
X38.806Y48.230
X39.003Y48.243
X39.241
X39.365Y48.534
X39.460Y48.712
X39.577Y48.878
X39.644Y48.949
X0.000
Y51.172
X41.697
X41.714Y51.185
X41.884Y51.278
X42.030Y51.375
X42.309Y51.544
X42.472Y51.650
X42.648Y51.736
X42.833Y51.799
X42.959Y51.843
X43.225Y51.949
X43.524Y52.065
X43.683Y52.118
X43.882Y52.181
X44.087Y52.218
X44.306Y52.265
X44.530Y52.281
X44.902
X45.088Y52.270
X45.274Y52.281
X45.291
X45.421Y52.310
X45.633Y52.363
X45.818Y52.411
X46.006Y52.436
X46.052Y52.458
X46.158Y52.511
X46.241Y52.553
X46.387Y52.650
X46.493Y52.723
X46.516Y52.746
X46.681Y52.896
X46.866Y53.022
X47.168Y53.202
X47.228Y53.233
X47.250Y53.294
X47.285Y53.394
X0.000
Y55.617
X50.827
X50.896Y55.761
X51.076Y56.063
X51.184Y56.224
X51.311Y56.373
X51.456Y56.504
X51.615Y56.616
X51.628Y56.657
X51.667Y56.825
X51.725Y56.987
X51.799Y57.142
X51.852Y57.248
X51.989Y57.492
X52.027Y57.683
X52.078Y57.839
X0.000
Y60.062
X53.883
X53.943Y60.152
X54.066Y60.296
X54.205Y60.424
X54.357Y60.535
X54.380Y60.557
X54.434Y60.610
X54.487Y60.663
X54.635Y60.801
X54.801Y60.918
X54.979Y61.013
X55.086Y61.066
X55.240Y61.141
X55.403Y61.198
X55.570Y61.237
X55.812Y61.295
X56.061Y61.315
X56.114
X56.325Y61.301
X56.533Y61.258
X56.840Y61.208
X56.858
X57.106Y61.189
X57.348Y61.131
X57.515Y61.092
X57.678Y61.034
X57.833Y60.960
X57.939Y60.907
X58.045Y60.854
X58.152Y60.801
X58.258Y60.748
X58.364Y60.694
X58.574Y60.580
X58.763Y60.435
X58.924Y60.320
X59.069Y60.185
X59.122Y60.132
X59.176Y60.079
X59.193Y60.062
G0Z5.080
G0X63.500Y57.839
G1Z-11.000F300.0
G1Y59.946F1000.0
X63.287
X63.082Y59.960
X62.880Y60.000
X62.862Y60.000
X62.437
X62.189Y60.019
X62.010Y60.062
X59.193
G0Z5.080
G0X59.873Y62.284
G1Z-11.000F300.0
G1X0.000F1000.0
Y64.507
X58.512
X58.512Y64.510
Y64.722
X58.524Y64.920
X58.561Y65.115
X58.622Y65.303
X58.687Y65.493
X58.776Y65.673
X58.887Y65.840
X59.013Y66.025
X59.163Y66.190
X59.216Y66.243
X59.269Y66.296
X59.322Y66.349
X59.480Y66.493
X59.656Y66.616
X59.848Y66.714
X59.893Y66.729
X0.000
Y68.952
G0Z5.080
G0X39.250Y33.392
G1Z-11.000F300.0
G1X45.781F1000.0
X45.873Y33.345
X46.074Y33.275
X46.234Y33.222
X46.422Y33.161
X46.617Y33.124
X46.815Y33.112
X47.080
X47.329Y33.131
X47.571Y33.189
X47.783Y33.242
X48.112Y33.338
X48.178Y33.307
X48.344Y33.228
X48.519Y33.169
X48.707Y33.108
X48.902Y33.071
X49.100Y33.059
X49.737
X49.983Y33.078
X50.224Y33.135
X50.452Y33.229
X50.759Y33.296
X51.062Y33.381
X51.094Y33.392
X54.838
G0Z5.080
G0X44.536Y35.614
G1Z-11.000F300.0
G1X40.166F1000.0
Y35.762
X40.137Y36.063
X40.438Y36.034
X40.704
X40.901Y36.047
X41.097Y36.084
X41.287Y36.145
X41.466Y36.229
X41.573Y36.283
X41.751Y36.378
X41.917Y36.495
X42.065Y36.632
X42.118Y36.686
X42.171Y36.739
X42.309Y36.887
X42.426Y37.053
X42.521Y37.231
X42.617Y37.441
X42.682Y37.665
X42.705Y37.837
X44.879
X44.912Y37.937
X44.933Y38.006
X45.018Y38.309
X45.078Y38.484
X45.157Y38.650
X45.210Y38.756
X45.263Y38.863
X45.378Y39.072
X45.523Y39.262
X45.682Y39.474
X45.797Y39.635
X45.932Y39.780
X45.985Y39.833
X46.038Y39.886
X46.091Y39.940
X46.144Y39.993
X46.197Y40.046
X46.211Y40.059
X44.194
X44.244Y40.196
X44.350Y40.462
X44.466Y40.760
X44.527Y40.949
X44.564Y41.144
X44.576Y41.341
Y41.451
X44.647Y41.588
X44.700Y41.695
X44.796Y41.905
X44.997Y42.032
X45.080Y42.075
X45.186Y42.128
X45.292Y42.181
X45.399Y42.234
X45.480Y42.282
X47.194
X47.203Y42.310
X47.282Y42.476
X47.462Y42.778
X47.648Y43.035
X47.836Y43.279
X47.862Y43.461
X47.909Y43.639
X47.962Y43.851
X48.047Y44.154
X48.100Y44.314
X48.160Y44.488
X48.167Y44.504
X47.377
X47.410Y44.564
X47.463Y44.670
X47.516Y44.777
X47.595Y44.943
X47.654Y45.118
X47.715Y45.306
X47.752Y45.501
X47.764Y45.699
Y46.177
X47.753Y46.368
X47.719Y46.556
X47.877
X48.075Y46.568
X48.270Y46.605
X48.458Y46.666
X48.618Y46.719
X48.643Y46.727
X48.718
G0Z5.080
G0X63.500Y66.729
G1Z-11.000F300.0
G1X61.638F1000.0
G0Z5.080
G0X0.000Y68.952
G1Z-11.000F300.0
G1X63.500F1000.0
Y70.787
X62.859
X62.722Y70.716
X62.615Y70.663
X62.449Y70.584
X62.274Y70.525
X62.086Y70.464
X61.891Y70.427
X61.693Y70.415
X61.162
X60.964Y70.427
X60.769Y70.464
X60.581Y70.525
X60.406Y70.584
X60.240Y70.663
X60.062Y70.758
X59.896Y70.876
X59.747Y71.013
X59.694Y71.066
X59.641Y71.119
X59.590Y71.174
X0.000
Y73.397
X59.267
X59.270Y73.407
X59.344Y73.562
X59.477Y73.798
X59.398Y73.950
X59.344Y74.056
X59.260Y74.235
X59.199Y74.425
X59.162Y74.621
X59.149Y74.818
Y75.190
X59.162Y75.388
X59.199Y75.584
X59.210Y75.619
X0.000
Y77.842
X61.043
X61.059Y77.922
X61.120Y78.112
X61.204Y78.291
X61.384Y78.593
X61.481Y78.740
X61.523Y78.822
X61.703Y79.125
X61.829Y79.309
X61.979Y79.474
X62.032Y79.527
X62.086Y79.581
X62.139Y79.634
X62.192Y79.687
X62.245Y79.740
X62.400Y79.882
X62.576Y80.005
X62.692Y80.064
X0.000
Y82.287
X63.500
Y84.509
X0.000
Y86.732
X63.500
Y88.842
X63.496Y88.896
X63.460Y88.899
X0.040
G0Z5.080
G0X63.500Y57.839
G1Z-11.000F300.0
G1X63.236F1000.0
G0Z5.080
G0X63.500Y40.059
G1Z-11.000F300.0
G1X63.003F1000.0
G0Z5.080
G0X52.156Y0.054
G1Z-11.000F300.0
G1X48.376F1000.0
X48.464Y0.116
X48.649Y0.242
X48.814Y0.392
X48.867Y0.445
X48.920Y0.498
X48.973Y0.552
X49.110Y0.700
X49.228Y0.866
X49.323Y1.044
X49.376Y1.150
X49.455Y1.317
X49.514Y1.491
X49.575Y1.680
X49.612Y1.875
X49.624Y2.072
Y2.277
X50.328
Y2.763
X50.348Y3.011
X50.406Y3.254
X50.445Y3.421
X50.502Y3.583
X50.577Y3.738
X50.630Y3.845
X50.683Y3.951
X50.778Y4.129
X50.896Y4.295
X51.033Y4.443
X51.086Y4.496
X51.089Y4.499
X48.855
G0Z5.080
G0X0.000Y0.111
G1Z-11.000F300.0
G1X0.004Y0.057F1000.0
X0.058Y0.053
X33.059
Y0.106
G2X33.169Y0.687I1.587J0.000
G2X33.440Y1.232I1.530J-0.422
G1X33.307Y1.469
G2X33.136Y1.954I1.392J0.763
G2X33.059Y2.444I1.510J0.490
G1Y2.657
G2X33.155Y3.201I1.587J0.000
G1X32.821Y3.337
G2X32.328Y3.687I0.656J1.445
G2X31.836Y4.836I1.096J1.149
G1Y5.367
G2X32.032Y6.130I1.587J0.000
G1X32.085Y6.236
G2X32.731Y6.951I1.445J-0.656
G1X32.779Y6.986
G2X33.072Y7.366I1.389J-0.769
G1X33.125Y7.419
X33.153Y7.447
X33.254Y7.671
G2X33.604Y8.163I1.445J-0.656
G1X33.657Y8.216
X33.854Y8.391
X34.029Y8.588
X34.082Y8.641
G2X34.574Y8.991I1.149J-1.096
G1X34.882Y9.120
X35.168Y9.232
X35.318Y9.310
X35.659Y9.448
G2X36.240Y9.558I0.581J-1.477
G1X36.400
G2X36.981Y9.448I0.000J-1.588
G1X37.322Y9.310
X37.428Y9.257
G2X37.920Y8.907I-0.656J-1.445
G1X37.973Y8.854
X38.229Y8.538
X38.249Y8.574
X38.302Y8.680
X38.355Y8.786
X38.541Y9.097
G2X38.266Y9.990I1.312J0.893
G1Y10.415
G2X38.588Y11.374I1.588J0.000
G1X38.628Y11.438
X38.453Y11.520
G2X37.961Y11.870I0.656J1.445
G1X37.960Y11.871
X37.838Y11.913
X37.539Y12.029
G2X36.845Y12.455I0.454J1.521
G1X36.792Y12.508
X36.739Y12.561
X36.686Y12.614
X36.632Y12.667
X36.356Y13.017
X36.232Y13.208
G2X35.760Y13.454I0.486J1.511
G1X35.410Y13.730
X35.359Y13.781
G2X34.787Y13.965I0.190J1.576
G1X34.484Y14.145
X34.465Y14.156
X34.197Y14.048
G2X33.722Y13.895I-0.720J1.415
G1X33.616Y13.783
X33.563Y13.730
G2X32.414Y13.238I-1.149J1.096
G1X32.149
G2X31.000Y13.730I0.000J1.588
G1X30.947Y13.783
X30.705Y14.077
G2X30.096Y14.474I0.541J1.493
G1X30.043Y14.527
X29.990Y14.580
G2X29.640Y15.073I1.096J1.149
G1X29.587Y15.179
X29.449Y15.520
X29.363Y15.823
G2X29.286Y16.313I1.510J0.490
G1Y16.473
X29.342Y16.892
X29.402Y17.235
X29.455Y17.500
X29.555Y17.904
X29.693Y18.245
X29.874Y18.547
